; generated by PrusaSlicer 2.4.2 on 2023-03-29 at 10:54:20 UTC

; 

; external perimeters extrusion width = 0.45mm
; perimeters extrusion width = 0.45mm
; infill extrusion width = 0.45mm
; solid infill extrusion width = 0.45mm
; top infill extrusion width = 0.40mm
; support material extrusion width = 0.35mm
; first layer extrusion width = 0.42mm

M107
M190 S60 ; set bed temperature and wait for it to be reached
M104 S215 ; set temperature
;TYPE:Custom
G28 ; home all axes
G1 Z5 F5000 ; lift nozzle
M109 S215 ; set temperature and wait for it to be reached
G21 ; set units to millimeters
G90 ; use absolute coordinates
M82 ; use absolute distances for extrusion
G92 E0
; Filament gcode
M107
;LAYER_CHANGE
;Z:0.2
;HEIGHT:0.2
G1 Z.2 F7200
G1 E-2 F2400
G92 E0
G1 X21.223 Y26.612 F7200
G1 E2 F2400
;TYPE:Skirt/Brim
;WIDTH:0.42
G1 F3600
G1 X23.089 Y25.24 E2.07261
G1 X26.098 Y24.533 E2.16952
G1 X228.606 Y24.533 E8.51904
G1 X230.888 Y24.93 E8.59165
G1 X233.481 Y26.612 E8.68856
G1 X236.309 Y29.561 E8.81667
G1 X237.602 Y31.482 E8.88928
G1 X238.189 Y34.236 E8.97755
G1 X238.189 Y73.828 E10.21894
G1 X237.792 Y76.11 E10.29156
G1 X236.192 Y78.623 E10.38497
G1 X233.363 Y81.429 E10.50988
G1 X231.464 Y82.754 E10.58249
G1 X228.606 Y83.388 E10.67427
G1 X26.098 Y83.388 E17.02379
G1 X23.816 Y82.991 E17.0964
G1 X21.341 Y81.429 E17.18818
G1 X18.513 Y78.623 E17.31309
G1 X17.173 Y76.734 E17.3857
G1 X16.515 Y73.828 E17.47912
G1 X16.515 Y34.236 E18.72051
G1 X16.913 Y31.954 E18.79313
G1 X18.395 Y29.561 E18.88141
G1 X21.182 Y26.655 E19.00763
G1 X21.454 Y26.916 F7200
G1 F3600
G1 X23.315 Y25.549 E19.08003
G1 X26.098 Y24.91 E19.16956
G1 X228.606 Y24.91 E25.51908
G1 X230.821 Y25.307 E25.58962
G1 X233.209 Y26.873 E25.67916
G1 X236.037 Y29.822 E25.80727
G1 X237.283 Y31.695 E25.87781
G1 X237.812 Y34.236 E25.95918
G1 X237.812 Y73.828 E27.20057
G1 X237.415 Y76.043 E27.27112
G1 X235.926 Y78.355 E27.35735
G1 X233.098 Y81.161 E27.48226
G1 X231.246 Y82.439 E27.5528
G1 X228.606 Y83.011 E27.63749
G1 X26.098 Y83.011 E33.98701
G1 X23.883 Y82.614 E34.05755
G1 X21.607 Y81.161 E34.14223
G1 X18.778 Y78.355 E34.26714
G1 X17.486 Y76.514 E34.33769
G1 X16.893 Y73.828 E34.42393
G1 X16.893 Y34.236 E35.66532
G1 X17.289 Y32.021 E35.73586
G1 X18.667 Y29.822 E35.81724
G1 X21.412 Y26.96 E35.94159
G1 E33.94159 F2400
G92 E0
G1 X23.27 Y40.015 F7200
G1 E2 F2400
;TYPE:Support material interface
;WIDTH:0.35
G1 F3600
G1 X23.27 Y34.236 E2.14755
G1 X23.587 Y34.236 E2.15567
G1 X23.587 Y39.872 E2.29957
G1 X23.905 Y39.872 E2.30768
G1 X23.905 Y34.236 E2.45158
G1 X24.223 Y34.236 E2.45969
G1 X24.223 Y39.872 E2.60359
G1 X24.541 Y39.872 E2.61171
G1 X24.541 Y34.236 E2.75561
G1 X24.859 Y34.236 E2.76372
G1 X24.859 Y39.872 E2.90762
G1 X25.176 Y39.872 E2.91574
G1 X25.176 Y34.236 E3.05964
G1 X25.494 Y34.236 E3.06775
G1 X25.494 Y37.26 E3.14496
G1 X25.693 Y37.061 E3.15214
G1 X25.812 Y37.061 E3.15517
G1 X25.812 Y34.236 E3.2273
G1 X26.13 Y34.236 E3.23542
G1 X26.13 Y37.061 E3.30754
G1 X26.448 Y37.061 E3.31566
G1 X26.448 Y34.236 E3.38779
G1 X26.766 Y34.236 E3.3959
G1 X26.766 Y37.061 E3.46803
G1 X27.083 Y37.061 E3.47615
G1 X27.083 Y34.236 E3.54827
G1 X27.401 Y34.236 E3.55639
G1 X27.401 Y37.061 E3.62852
G1 X27.719 Y37.061 E3.63663
G1 X27.719 Y34.236 E3.70876
G1 X28.037 Y34.236 E3.71687
G1 X28.037 Y37.061 E3.789
G1 X28.355 Y37.061 E3.79712
G1 X28.355 Y34.236 E3.86924
G1 X28.672 Y34.236 E3.87736
G1 X28.672 Y37.061 E3.94949
G1 X30.261 Y37.061 E3.99006
G1 X226.032 Y37.061 E8.98882
G1 X226.032 Y34.236 E9.06095
G1 X226.35 Y34.236 E9.06906
G1 X226.35 Y37.061 E9.14119
G1 X226.667 Y37.061 E9.1493
G1 X226.667 Y34.236 E9.22143
G1 X226.985 Y34.236 E9.22955
G1 X226.985 Y37.061 E9.30167
G1 X227.303 Y37.061 E9.30979
G1 X227.303 Y34.236 E9.38192
G1 X227.621 Y34.236 E9.39003
G1 X227.621 Y37.061 E9.46216
G1 X227.939 Y37.061 E9.47027
G1 X227.939 Y34.236 E9.5424
G1 X228.256 Y34.236 E9.55052
G1 X228.256 Y37.061 E9.62265
G1 X228.574 Y37.061 E9.63076
G1 X228.574 Y34.236 E9.70289
G1 X228.892 Y34.236 E9.711
G1 X228.892 Y37.061 E9.78313
G1 X229.011 Y37.061 E9.78617
G1 X229.21 Y37.259 E9.79335
G1 X229.21 Y34.236 E9.87055
G1 X229.528 Y34.236 E9.87866
G1 X229.528 Y39.872 E10.02256
G1 X229.845 Y39.872 E10.03068
G1 X229.845 Y34.236 E10.17458
G1 X230.163 Y34.236 E10.18269
G1 X230.163 Y39.872 E10.32659
G1 X230.481 Y39.872 E10.33471
G1 X230.481 Y34.236 E10.47861
G1 X230.799 Y34.236 E10.48672
G1 X230.799 Y39.872 E10.63062
G1 X231.117 Y39.872 E10.63874
G1 X231.117 Y34.236 E10.78264
G1 X231.435 Y34.236 E10.79075
G1 X231.435 Y40.015 E10.9383
G1 E8.9383 F2400
G92 E0
G1 X228.606 Y38.032 F7200
G1 E2 F2400
;TYPE:Support material
;WIDTH:0.42
G1 F3600
G1 X26.098 Y38.032 E8.34952
G1 X26.098 Y37.43 E8.36841
G1 X228.606 Y37.43 E14.71793
G1 X228.606 Y37.976 E14.73505
G1 E12.73505 F2400
G92 E0
G1 X228.606 Y33.867 F7200
G1 E2 F2400
G1 F3600
G1 X225.606 Y33.867 E2.09406
G1 X225.606 Y36.685 E2.18241
G1 X29.098 Y36.685 E8.3438
G1 X29.098 Y33.867 E8.43215
G1 X26.098 Y33.867 E8.52622
G1 X26.098 Y31.287 E8.6071
G1 X228.606 Y31.287 E14.95662
G1 X228.606 Y33.81 E15.03574
G1 X227.907 Y33.697 F7200
G1 F3600
G1 X227.907 Y31.626 E15.10066
G1 X227.488 Y31.626 E15.1138
G1 X227.488 Y33.528 E15.17341
G1 X227.069 Y33.528 E15.18654
G1 X227.069 Y31.626 E15.24615
G1 X226.65 Y31.626 E15.25929
G1 X226.65 Y33.528 E15.31889
G1 X226.231 Y33.528 E15.33203
G1 X226.231 Y31.626 E15.39164
G1 X225.812 Y31.626 E15.40477
G1 X225.812 Y33.528 E15.46438
G1 X225.393 Y33.528 E15.47752
G1 X225.393 Y31.626 E15.53712
G1 X224.974 Y31.626 E15.55026
G1 X224.974 Y36.345 E15.69822
G1 X224.555 Y36.345 E15.71135
G1 X224.555 Y31.626 E15.85931
G1 X224.136 Y31.626 E15.87245
G1 X224.136 Y36.345 E16.0204
G1 X223.717 Y36.345 E16.03354
G1 X223.717 Y31.626 E16.1815
G1 X223.298 Y31.626 E16.19463
G1 X223.298 Y36.345 E16.34259
G1 X222.879 Y36.345 E16.35573
G1 X222.879 Y31.626 E16.50368
G1 X222.46 Y31.626 E16.51682
G1 X222.46 Y36.345 E16.66478
G1 X222.041 Y36.345 E16.67791
G1 X222.041 Y31.626 E16.82587
G1 X221.622 Y31.626 E16.83901
G1 X221.622 Y36.345 E16.98696
G1 X221.203 Y36.345 E17.0001
G1 X221.203 Y31.626 E17.14806
G1 X220.784 Y31.626 E17.16119
G1 X220.784 Y36.345 E17.30915
G1 X220.365 Y36.345 E17.32229
G1 X220.365 Y31.626 E17.47024
G1 X219.946 Y31.626 E17.48338
G1 X219.946 Y36.345 E17.63134
G1 X219.527 Y36.345 E17.64447
G1 X219.527 Y31.626 E17.79243
G1 X219.108 Y31.626 E17.80557
G1 X219.108 Y36.345 E17.95352
G1 X218.689 Y36.345 E17.96666
G1 X218.689 Y31.626 E18.11462
G1 X218.27 Y31.626 E18.12775
G1 X218.27 Y36.345 E18.27571
G1 X217.851 Y36.345 E18.28885
G1 X217.851 Y31.626 E18.4368
G1 X217.432 Y31.626 E18.44994
G1 X217.432 Y36.345 E18.5979
G1 X217.013 Y36.345 E18.61103
G1 X217.013 Y31.626 E18.75899
G1 X216.594 Y31.626 E18.77213
G1 X216.594 Y36.345 E18.92008
G1 X216.175 Y36.345 E18.93322
G1 X216.175 Y31.626 E19.08118
G1 X215.756 Y31.626 E19.09431
G1 X215.756 Y36.345 E19.24227
G1 X215.337 Y36.345 E19.25541
G1 X215.337 Y31.626 E19.40336
G1 X214.918 Y31.626 E19.4165
G1 X214.918 Y36.345 E19.56446
G1 X214.499 Y36.345 E19.57759
G1 X214.499 Y31.626 E19.72555
G1 X214.08 Y31.626 E19.73869
G1 X214.08 Y36.345 E19.88664
G1 X213.661 Y36.345 E19.89978
G1 X213.661 Y31.626 E20.04774
G1 X213.242 Y31.626 E20.06087
G1 X213.242 Y36.345 E20.20883
G1 X212.823 Y36.345 E20.22197
G1 X212.823 Y31.626 E20.36992
G1 X212.404 Y31.626 E20.38306
G1 X212.404 Y36.345 E20.53102
G1 X211.985 Y36.345 E20.54415
G1 X211.985 Y31.626 E20.69211
G1 X211.566 Y31.626 E20.70525
G1 X211.566 Y36.345 E20.8532
G1 X211.148 Y36.345 E20.86634
G1 X211.148 Y31.626 E21.0143
G1 X210.729 Y31.626 E21.02743
G1 X210.729 Y36.345 E21.17539
G1 X210.31 Y36.345 E21.18853
G1 X210.31 Y31.626 E21.33648
G1 X209.891 Y31.626 E21.34962
G1 X209.891 Y36.345 E21.49758
G1 X209.472 Y36.345 E21.51071
G1 X209.472 Y31.626 E21.65867
G1 X209.053 Y31.626 E21.67181
G1 X209.053 Y36.345 E21.81976
G1 X208.634 Y36.345 E21.8329
G1 X208.634 Y31.626 E21.98086
G1 X208.215 Y31.626 E21.99399
G1 X208.215 Y36.345 E22.14195
G1 X207.796 Y36.345 E22.15509
G1 X207.796 Y31.626 E22.30304
G1 X207.377 Y31.626 E22.31618
G1 X207.377 Y36.345 E22.46414
G1 X206.958 Y36.345 E22.47727
G1 X206.958 Y31.626 E22.62523
G1 X206.539 Y31.626 E22.63837
G1 X206.539 Y36.345 E22.78632
G1 X206.12 Y36.345 E22.79946
G1 X206.12 Y31.626 E22.94742
G1 X205.701 Y31.626 E22.96055
G1 X205.701 Y36.345 E23.10851
G1 X205.282 Y36.345 E23.12165
G1 X205.282 Y31.626 E23.2696
G1 X204.863 Y31.626 E23.28274
G1 X204.863 Y36.345 E23.4307
G1 X204.444 Y36.345 E23.44383
G1 X204.444 Y31.626 E23.59179
G1 X204.025 Y31.626 E23.60493
G1 X204.025 Y36.345 E23.75288
G1 X203.606 Y36.345 E23.76602
G1 X203.606 Y31.626 E23.91398
G1 X203.187 Y31.626 E23.92711
G1 X203.187 Y36.345 E24.07507
G1 X202.768 Y36.345 E24.08821
G1 X202.768 Y31.626 E24.23616
G1 X202.349 Y31.626 E24.2493
G1 X202.349 Y36.345 E24.39726
G1 X201.93 Y36.345 E24.41039
G1 X201.93 Y31.626 E24.55835
G1 X201.511 Y31.626 E24.57149
G1 X201.511 Y36.345 E24.71944
G1 X201.092 Y36.345 E24.73258
G1 X201.092 Y31.626 E24.88054
G1 X200.673 Y31.626 E24.89367
G1 X200.673 Y36.345 E25.04163
G1 X200.254 Y36.345 E25.05477
G1 X200.254 Y31.626 E25.20272
G1 X199.835 Y31.626 E25.21586
G1 X199.835 Y36.345 E25.36382
G1 X199.416 Y36.345 E25.37695
G1 X199.416 Y31.626 E25.52491
G1 X198.997 Y31.626 E25.53805
G1 X198.997 Y36.345 E25.686
G1 X198.578 Y36.345 E25.69914
G1 X198.578 Y31.626 E25.84709
G1 X198.159 Y31.626 E25.86023
G1 X198.159 Y36.345 E26.00819
G1 X197.74 Y36.345 E26.02133
G1 X197.74 Y31.626 E26.16928
G1 X197.321 Y31.626 E26.18242
G1 X197.321 Y36.345 E26.33037
G1 X196.902 Y36.345 E26.34351
G1 X196.902 Y31.626 E26.49147
G1 X196.483 Y31.626 E26.50461
G1 X196.483 Y36.345 E26.65256
G1 X196.064 Y36.345 E26.6657
G1 X196.064 Y31.626 E26.81365
G1 X195.645 Y31.626 E26.82679
G1 X195.645 Y36.345 E26.97475
G1 X195.226 Y36.345 E26.98789
G1 X195.226 Y31.626 E27.13584
G1 X194.807 Y31.626 E27.14898
G1 X194.807 Y36.345 E27.29693
G1 X194.388 Y36.345 E27.31007
G1 X194.388 Y31.626 E27.45803
G1 X193.969 Y31.626 E27.47117
G1 X193.969 Y36.345 E27.61912
G1 X193.55 Y36.345 E27.63226
G1 X193.55 Y31.626 E27.78021
G1 X193.132 Y31.626 E27.79335
G1 X193.132 Y36.345 E27.94131
G1 X192.713 Y36.345 E27.95445
G1 X192.713 Y31.626 E28.1024
G1 X192.294 Y31.626 E28.11554
G1 X192.294 Y36.345 E28.26349
G1 X191.875 Y36.345 E28.27663
G1 X191.875 Y31.626 E28.42459
G1 X191.456 Y31.626 E28.43773
G1 X191.456 Y36.345 E28.58568
G1 X191.037 Y36.345 E28.59882
G1 X191.037 Y31.626 E28.74677
G1 X190.618 Y31.626 E28.75991
G1 X190.618 Y36.345 E28.90787
G1 X190.199 Y36.345 E28.92101
G1 X190.199 Y31.626 E29.06896
G1 X189.78 Y31.626 E29.0821
G1 X189.78 Y36.345 E29.23005
G1 X189.361 Y36.345 E29.24319
G1 X189.361 Y31.626 E29.39115
G1 X188.942 Y31.626 E29.40429
G1 X188.942 Y36.345 E29.55224
G1 X188.523 Y36.345 E29.56538
G1 X188.523 Y31.626 E29.71333
G1 X188.104 Y31.626 E29.72647
G1 X188.104 Y36.345 E29.87443
G1 X187.685 Y36.345 E29.88756
G1 X187.685 Y31.626 E30.03552
G1 X187.266 Y31.626 E30.04866
G1 X187.266 Y36.345 E30.19661
G1 X186.847 Y36.345 E30.20975
G1 X186.847 Y31.626 E30.35771
G1 X186.428 Y31.626 E30.37084
G1 X186.428 Y36.345 E30.5188
G1 X186.009 Y36.345 E30.53194
G1 X186.009 Y31.626 E30.67989
G1 X185.59 Y31.626 E30.69303
G1 X185.59 Y36.345 E30.84099
G1 X185.171 Y36.345 E30.85412
G1 X185.171 Y31.626 E31.00208
G1 X184.752 Y31.626 E31.01522
G1 X184.752 Y36.345 E31.16317
G1 X184.333 Y36.345 E31.17631
G1 X184.333 Y31.626 E31.32427
G1 X183.914 Y31.626 E31.3374
G1 X183.914 Y36.345 E31.48536
G1 X183.495 Y36.345 E31.4985
G1 X183.495 Y31.626 E31.64645
G1 X183.076 Y31.626 E31.65959
G1 X183.076 Y36.345 E31.80755
G1 X182.657 Y36.345 E31.82068
G1 X182.657 Y31.626 E31.96864
G1 X182.238 Y31.626 E31.98178
G1 X182.238 Y36.345 E32.12973
G1 X181.819 Y36.345 E32.14287
G1 X181.819 Y31.626 E32.29083
G1 X181.4 Y31.626 E32.30396
G1 X181.4 Y36.345 E32.45192
G1 X180.981 Y36.345 E32.46506
G1 X180.981 Y31.626 E32.61301
G1 X180.562 Y31.626 E32.62615
G1 X180.562 Y36.345 E32.77411
G1 X180.143 Y36.345 E32.78724
G1 X180.143 Y31.626 E32.9352
G1 X179.724 Y31.626 E32.94834
G1 X179.724 Y36.345 E33.09629
G1 X179.305 Y36.345 E33.10943
G1 X179.305 Y31.626 E33.25739
G1 X178.886 Y31.626 E33.27052
G1 X178.886 Y36.345 E33.41848
G1 X178.467 Y36.345 E33.43162
G1 X178.467 Y31.626 E33.57957
G1 X178.048 Y31.626 E33.59271
G1 X178.048 Y36.345 E33.74067
G1 X177.629 Y36.345 E33.7538
G1 X177.629 Y31.626 E33.90176
G1 X177.21 Y31.626 E33.9149
G1 X177.21 Y36.345 E34.06285
G1 X176.791 Y36.345 E34.07599
G1 X176.791 Y31.626 E34.22395
G1 X176.372 Y31.626 E34.23708
G1 X176.372 Y36.345 E34.38504
G1 X175.953 Y36.345 E34.39818
G1 X175.953 Y31.626 E34.54613
G1 X175.534 Y31.626 E34.55927
G1 X175.534 Y36.345 E34.70723
G1 X175.115 Y36.345 E34.72036
G1 X175.115 Y31.626 E34.86832
G1 X174.697 Y31.626 E34.88146
G1 X174.697 Y36.345 E35.02941
G1 X174.278 Y36.345 E35.04255
G1 X174.278 Y31.626 E35.19051
G1 X173.859 Y31.626 E35.20364
G1 X173.859 Y36.345 E35.3516
G1 X173.44 Y36.345 E35.36474
G1 X173.44 Y31.626 E35.51269
G1 X173.021 Y31.626 E35.52583
G1 X173.021 Y36.345 E35.67379
G1 X172.602 Y36.345 E35.68692
G1 X172.602 Y31.626 E35.83488
G1 X172.183 Y31.626 E35.84802
G1 X172.183 Y36.345 E35.99597
G1 X171.764 Y36.345 E36.00911
G1 X171.764 Y31.626 E36.15707
G1 X171.345 Y31.626 E36.1702
G1 X171.345 Y36.345 E36.31816
G1 X170.926 Y36.345 E36.3313
G1 X170.926 Y31.626 E36.47925
G1 X170.507 Y31.626 E36.49239
G1 X170.507 Y36.345 E36.64035
G1 X170.088 Y36.345 E36.65348
G1 X170.088 Y31.626 E36.80144
G1 X169.669 Y31.626 E36.81458
G1 X169.669 Y36.345 E36.96253
G1 X169.25 Y36.345 E36.97567
G1 X169.25 Y31.626 E37.12363
G1 X168.831 Y31.626 E37.13676
G1 X168.831 Y36.345 E37.28472
G1 X168.412 Y36.345 E37.29786
G1 X168.412 Y31.626 E37.44581
G1 X167.993 Y31.626 E37.45895
G1 X167.993 Y36.345 E37.60691
G1 X167.574 Y36.345 E37.62004
G1 X167.574 Y31.626 E37.768
G1 X167.155 Y31.626 E37.78114
G1 X167.155 Y36.345 E37.92909
G1 X166.736 Y36.345 E37.94223
G1 X166.736 Y31.626 E38.09019
G1 X166.317 Y31.626 E38.10332
G1 X166.317 Y36.345 E38.25128
G1 X165.898 Y36.345 E38.26442
G1 X165.898 Y31.626 E38.41237
G1 X165.479 Y31.626 E38.42551
G1 X165.479 Y36.345 E38.57347
G1 X165.06 Y36.345 E38.5866
G1 X165.06 Y31.626 E38.73456
G1 X164.641 Y31.626 E38.7477
G1 X164.641 Y36.345 E38.89565
G1 X164.222 Y36.345 E38.90879
G1 X164.222 Y31.626 E39.05675
G1 X163.803 Y31.626 E39.06988
G1 X163.803 Y36.345 E39.21784
G1 X163.384 Y36.345 E39.23098
G1 X163.384 Y31.626 E39.37893
G1 X162.965 Y31.626 E39.39207
G1 X162.965 Y36.345 E39.54003
G1 X162.546 Y36.345 E39.55316
G1 X162.546 Y31.626 E39.70112
G1 X162.127 Y31.626 E39.71426
G1 X162.127 Y36.345 E39.86221
G1 X161.708 Y36.345 E39.87535
G1 X161.708 Y31.626 E40.02331
G1 X161.289 Y31.626 E40.03644
G1 X161.289 Y36.345 E40.1844
G1 X160.87 Y36.345 E40.19754
G1 X160.87 Y31.626 E40.34549
G1 X160.451 Y31.626 E40.35863
G1 X160.451 Y36.345 E40.50659
G1 X160.032 Y36.345 E40.51972
G1 X160.032 Y31.626 E40.66768
G1 X159.613 Y31.626 E40.68082
G1 X159.613 Y36.345 E40.82877
G1 X159.194 Y36.345 E40.84191
G1 X159.194 Y31.626 E40.98987
G1 X158.775 Y31.626 E41.003
G1 X158.775 Y36.345 E41.15096
G1 X158.356 Y36.345 E41.1641
G1 X158.356 Y31.626 E41.31205
G1 X157.937 Y31.626 E41.32519
G1 X157.937 Y36.345 E41.47315
G1 X157.518 Y36.345 E41.48628
G1 X157.518 Y31.626 E41.63424
G1 X157.099 Y31.626 E41.64738
G1 X157.099 Y36.345 E41.79533
G1 X156.681 Y36.345 E41.80847
G1 X156.681 Y31.626 E41.95643
G1 X156.262 Y31.626 E41.96956
G1 X156.262 Y36.345 E42.11752
G1 X155.843 Y36.345 E42.13066
G1 X155.843 Y31.626 E42.27861
G1 X155.424 Y31.626 E42.29175
G1 X155.424 Y36.345 E42.43971
G1 X155.005 Y36.345 E42.45284
G1 X155.005 Y31.626 E42.6008
G1 X154.586 Y31.626 E42.61394
G1 X154.586 Y36.345 E42.76189
G1 X154.167 Y36.345 E42.77503
G1 X154.167 Y31.626 E42.92299
G1 X153.748 Y31.626 E42.93612
G1 X153.748 Y36.345 E43.08408
G1 X153.329 Y36.345 E43.09722
G1 X153.329 Y31.626 E43.24517
G1 X152.91 Y31.626 E43.25831
G1 X152.91 Y36.345 E43.40627
G1 X152.491 Y36.345 E43.4194
G1 X152.491 Y31.626 E43.56736
G1 X152.072 Y31.626 E43.5805
G1 X152.072 Y36.345 E43.72845
G1 X151.653 Y36.345 E43.74159
G1 X151.653 Y31.626 E43.88955
G1 X151.234 Y31.626 E43.90268
G1 X151.234 Y36.345 E44.05064
