; generated by PrusaSlicer 2.4.2 on 2023-04-02 at 12:14:45 UTC

; 

; external perimeters extrusion width = 0.45mm
; perimeters extrusion width = 0.45mm
; infill extrusion width = 0.45mm
; solid infill extrusion width = 0.45mm
; top infill extrusion width = 0.40mm
; first layer extrusion width = 0.42mm

M107
M190 S60 ; set bed temperature and wait for it to be reached
M104 S215 ; set temperature
;TYPE:Custom
G28 ; home all axes
G1 Z5 F5000 ; lift nozzle
M109 S215 ; set temperature and wait for it to be reached
G21 ; set units to millimeters
G90 ; use absolute coordinates
M82 ; use absolute distances for extrusion
G92 E0
; Filament gcode
M107
;LAYER_CHANGE
;Z:0.2
;HEIGHT:0.2
G1 Z.2 F7200
G1 E-2 F2400
G92 E0
G1 X157.622 Y13 F7200
G1 E2 F2400
;TYPE:Skirt/Brim
;WIDTH:0.42
G1 F3600
G1 X158.019 Y10.718 E2.07261
G1 X159.164 Y8.705 E2.14523
G1 X160.921 Y7.197 E2.21784
G1 X163.085 Y6.371 E2.29045
G1 X164.377 Y6.246 E2.33115
G1 X198.977 Y6.246 E3.416
G1 X201.258 Y6.643 E3.48862
G1 X203.271 Y7.787 E3.56123
G1 X204.78 Y9.545 E3.63384
G1 X205.606 Y11.708 E3.70646
G1 X205.731 Y13 E3.74715
G1 X205.731 Y187 E9.2028
G1 X205.334 Y189.282 E9.27541
G1 X204.189 Y191.295 E9.34802
G1 X202.432 Y192.803 E9.42064
G1 X200.268 Y193.629 E9.49325
G1 X198.977 Y193.754 E9.53394
G1 X164.377 Y193.754 E10.6188
G1 X162.095 Y193.357 E10.69142
G1 X160.082 Y192.213 E10.76403
G1 X158.573 Y190.455 E10.83664
G1 X157.747 Y188.292 E10.90925
G1 X157.622 Y187 E10.94995
G1 X157.622 Y13.06 E16.40371
G1 X157.999 Y13.06 F7200
G1 F3600
G1 X158.396 Y10.785 E16.47611
G1 X159.537 Y8.847 E16.54665
G1 X161.281 Y7.425 E16.61719
G1 X164.377 Y6.623 E16.71745
G1 X198.977 Y6.623 E17.80231
G1 X201.191 Y7.02 E17.87285
G1 X203.13 Y8.161 E17.94339
G1 X204.552 Y9.904 E18.01393
G1 X205.354 Y13 E18.11419
G1 X205.354 Y187 E23.56984
G1 X204.957 Y189.215 E23.64038
G1 X203.816 Y191.153 E23.71093
G1 X202.072 Y192.575 E23.78147
G1 X198.977 Y193.377 E23.88173
G1 X164.377 Y193.377 E24.96659
G1 X162.162 Y192.98 E25.03713
G1 X160.223 Y191.839 E25.10767
G1 X158.801 Y190.096 E25.17821
G1 X157.999 Y187 E25.27847
G1 X157.999 Y13.12 E30.73036
G1 E28.73036 F2400
G92 E0
G1 X177.762 Y80.836 F7200
G1 E2 F2400
;TYPE:Perimeter
G1 F2250
G1 X185.591 Y80.836 E2.24545
G1 X185.591 Y138.164 E4.04294
G1 X177.762 Y138.164 E4.28839
G1 X177.762 Y80.896 E6.084
G1 X178.139 Y81.213 F7200
G1 F2250
G1 X185.214 Y81.213 E6.30581
G1 X185.214 Y137.787 E8.07965
G1 X178.139 Y137.787 E8.30145
G1 X178.139 Y81.273 E10.07342
G1 X178.517 Y81.59 F7200
;TYPE:External perimeter
G1 F1125
G1 X184.837 Y81.59 E10.27157
G1 X184.837 Y137.41 E12.02177
G1 X178.517 Y137.41 E12.21993
G1 X178.517 Y81.65 E13.96825
G1 X178.501 Y81.19 F7200
G1 E11.96825 F2400
G92 E0
G1 X165.541 Y14.164 F7200
G1 E2 F2400
;TYPE:Perimeter
G1 F2250
G1 X197.812 Y14.164 E3.01186
G1 X197.812 Y185.836 E8.3945
G1 X165.541 Y185.836 E9.40636
G1 X165.541 Y14.224 E14.78712
G1 X165.164 Y13.787 F7200
G1 F2250
G1 X198.189 Y13.787 E15.82262
G1 X198.189 Y186.213 E21.22892
G1 X165.164 Y186.213 E22.26442
G1 X165.164 Y13.847 E27.66883
G1 X164.787 Y13.41 F7200
;TYPE:External perimeter
G1 F1125
G1 X198.567 Y13.41 E28.72798
G1 X198.567 Y186.59 E34.15791
G1 X164.787 Y186.59 E35.21706
G1 X164.787 Y13.47 E40.64512
G1 X165.145 Y13.587 F7200
G1 E38.64512 F2400
G92 E0
G1 X197.699 Y15.041 F7200
G1 E2 F2400
;TYPE:Solid infill
;WIDTH:0.420723
G1 F1500
G1 X197.105 Y14.447 E2.02639
G1 X196.571 Y14.447 E2.04318
G1 X197.53 Y15.406 E2.08577
G1 X197.53 Y15.94 E2.10256
G1 X196.037 Y14.447 E2.16889
G1 X195.502 Y14.447 E2.18567
G1 X197.53 Y16.474 E2.27574
G1 X197.53 Y17.009 E2.29252
G1 X194.968 Y14.447 E2.40633
G1 X194.434 Y14.447 E2.42311
G1 X197.53 Y17.543 E2.56065
G1 X197.53 Y18.077 E2.57744
G1 X193.899 Y14.447 E2.73872
G1 X193.365 Y14.447 E2.7555
G1 X197.53 Y18.611 E2.94051
G1 X197.53 Y19.146 E2.9573
G1 X192.831 Y14.447 E3.16605
G1 X192.296 Y14.447 E3.18284
G1 X197.53 Y19.68 E3.41532
G1 X197.53 Y20.214 E3.43211
G1 X191.762 Y14.447 E3.68833
G1 X191.228 Y14.447 E3.70512
G1 X197.53 Y20.749 E3.98508
G1 X197.53 Y21.283 E4.00187
G1 X190.694 Y14.447 E4.30557
G1 X190.159 Y14.447 E4.32235
G1 X197.53 Y21.817 E4.64979
G1 X197.53 Y22.352 E4.66657
G1 X189.625 Y14.447 E5.01774
G1 X189.091 Y14.447 E5.03453
G1 X197.53 Y22.886 E5.40944
G1 X197.53 Y23.42 E5.42622
G1 X188.556 Y14.447 E5.82487
G1 X188.022 Y14.447 E5.84166
G1 X197.53 Y23.954 E6.26404
G1 X197.53 Y24.489 E6.28082
G1 X187.488 Y14.447 E6.72695
G1 X186.954 Y14.447 E6.74373
G1 X197.53 Y25.023 E7.21359
G1 X197.53 Y25.557 E7.23037
G1 X186.419 Y14.447 E7.72397
G1 X185.885 Y14.447 E7.74075
G1 X197.53 Y26.092 E8.25808
G1 X197.53 Y26.626 E8.27487
G1 X185.351 Y14.447 E8.81594
G1 X184.816 Y14.447 E8.83272
G1 X197.53 Y27.16 E9.39753
G1 X197.53 Y27.694 E9.41431
G1 X184.282 Y14.447 E10.00286
G1 X183.748 Y14.447 E10.01964
G1 X197.53 Y28.229 E10.63192
G1 X197.53 Y28.763 E10.6487
G1 X183.213 Y14.447 E11.28472
G1 X182.679 Y14.447 E11.30151
G1 X197.53 Y29.297 E11.96126
G1 X197.53 Y29.832 E11.97804
G1 X182.145 Y14.447 E12.66153
G1 X181.611 Y14.447 E12.67832
G1 X197.53 Y30.366 E13.38555
G1 X197.53 Y30.9 E13.40233
G1 X181.076 Y14.447 E14.1333
G1 X180.542 Y14.447 E14.15008
G1 X197.53 Y31.435 E14.90478
G1 X197.53 Y31.969 E14.92157
G1 X180.008 Y14.447 E15.70001
G1 X179.473 Y14.447 E15.71679
G1 X197.53 Y32.503 E16.51896
G1 X197.53 Y33.037 E16.53575
G1 X178.939 Y14.447 E17.36166
G1 X178.405 Y14.447 E17.37845
G1 X197.53 Y33.572 E18.2281
G1 X197.53 Y34.106 E18.24488
G1 X177.871 Y14.447 E19.11827
G1 X177.336 Y14.447 E19.13505
G1 X197.53 Y34.64 E20.03217
G1 X197.53 Y35.175 E20.04896
G1 X176.802 Y14.447 E20.96982
G1 X176.268 Y14.447 E20.9866
G1 X197.53 Y35.709 E21.9312
G1 X197.53 Y36.243 E21.94798
G1 X175.733 Y14.447 E22.91632
G1 X175.199 Y14.447 E22.9331
G1 X197.53 Y36.777 E23.92517
G1 X197.53 Y37.312 E23.94196
G1 X174.665 Y14.447 E24.95777
G1 X174.13 Y14.447 E24.97455
G1 X197.53 Y37.846 E26.0141
G1 X197.53 Y38.38 E26.03088
G1 X173.596 Y14.447 E27.09416
G1 X173.062 Y14.447 E27.11095
G1 X197.53 Y38.915 E28.19797
G1 X197.53 Y39.449 E28.21475
G1 X172.528 Y14.447 E29.32551
G1 X171.993 Y14.447 E29.34229
G1 X197.53 Y39.983 E30.47678
G1 X197.53 Y40.518 E30.49357
G1 X171.459 Y14.447 E31.6518
G1 X170.925 Y14.447 E31.66858
G1 X197.53 Y41.052 E32.85055
G1 X197.53 Y41.586 E32.86733
G1 X170.39 Y14.447 E34.07304
G1 X169.856 Y14.447 E34.08982
G1 X197.53 Y42.12 E35.31926
G1 X197.53 Y42.655 E35.33605
G1 X169.322 Y14.447 E36.58922
G1 X168.788 Y14.447 E36.60601
G1 X197.53 Y43.189 E37.88292
G1 X197.53 Y43.723 E37.89971
G1 X168.253 Y14.447 E39.20036
G1 X167.719 Y14.447 E39.21714
G1 X197.53 Y44.258 E40.54153
G1 X197.53 Y44.792 E40.55831
G1 X167.185 Y14.447 E41.90644
G1 X166.65 Y14.447 E41.92322
G1 X197.53 Y45.326 E43.29509
G1 X197.53 Y45.86 E43.31187
G1 X166.116 Y14.447 E44.70747
G1 X165.823 Y14.447 E44.71666
G1 X165.823 Y14.689 E44.72425
G1 X197.53 Y46.395 E46.13285
G1 X197.53 Y46.929 E46.14964
G1 X165.823 Y15.223 E47.55824
G1 X165.823 Y15.757 E47.57502
G1 X197.53 Y47.463 E48.98362
G1 X197.53 Y47.998 E49.0004
G1 X165.823 Y16.292 E50.409
G1 X165.823 Y16.826 E50.42579
G1 X197.53 Y48.532 E51.83438
G1 X197.53 Y49.066 E51.85117
G1 X165.823 Y17.36 E53.25977
G1 X165.823 Y17.894 E53.27655
G1 X197.53 Y49.601 E54.68515
G1 X197.53 Y50.135 E54.70193
G1 X165.823 Y18.429 E56.11053
G1 X165.823 Y18.963 E56.12732
G1 X197.53 Y50.669 E57.53592
G1 X197.53 Y51.203 E57.5527
G1 X165.823 Y19.497 E58.9613
G1 X165.823 Y20.032 E58.97808
G1 X197.53 Y51.738 E60.38668
G1 X197.53 Y52.272 E60.40347
G1 X165.823 Y20.566 E61.81206
G1 X165.823 Y21.1 E61.82885
G1 X197.53 Y52.806 E63.23745
G1 X197.53 Y53.341 E63.25423
G1 X165.823 Y21.634 E64.66283
G1 X165.823 Y22.169 E64.67961
G1 X197.53 Y53.875 E66.08821
G1 X197.53 Y54.409 E66.105
G1 X165.823 Y22.703 E67.5136
G1 X165.823 Y23.237 E67.53038
G1 X197.53 Y54.943 E68.93898
G1 X197.53 Y55.478 E68.95576
G1 X165.823 Y23.772 E70.36436
G1 X165.823 Y24.306 E70.38115
G1 X197.53 Y56.012 E71.78974
G1 X197.53 Y56.546 E71.80653
G1 X165.823 Y24.84 E73.21513
G1 X165.823 Y25.375 E73.23191
G1 X197.53 Y57.081 E74.64051
G1 X197.53 Y57.615 E74.65729
G1 X165.823 Y25.909 E76.06589
G1 X165.823 Y26.443 E76.08268
G1 X197.53 Y58.149 E77.49128
G1 X197.53 Y58.684 E77.50806
G1 X165.823 Y26.977 E78.91666
G1 X165.823 Y27.512 E78.93344
G1 X197.53 Y59.218 E80.34204
G1 X197.53 Y59.752 E80.35883
G1 X165.823 Y28.046 E81.76742
G1 X165.823 Y28.58 E81.78421
G1 X197.53 Y60.286 E83.19281
G1 X197.53 Y60.821 E83.20959
G1 X165.823 Y29.115 E84.61819
G1 X165.823 Y29.649 E84.63497
G1 X197.53 Y61.355 E86.04357
G1 X197.53 Y61.889 E86.06036
G1 X165.823 Y30.183 E87.46896
G1 X165.823 Y30.717 E87.48574
G1 X197.53 Y62.424 E88.89434
G1 X197.53 Y62.958 E88.91112
G1 X165.823 Y31.252 E90.31972
G1 X165.823 Y31.786 E90.33651
G1 X197.53 Y63.492 E91.7451
G1 X197.53 Y64.026 E91.76189
G1 X165.823 Y32.32 E93.17049
G1 X165.823 Y32.855 E93.18727
G1 X197.53 Y64.561 E94.59587
G1 X197.53 Y65.095 E94.61265
G1 X165.823 Y33.389 E96.02125
G1 X165.823 Y33.923 E96.03804
G1 X197.53 Y65.629 E97.44664
G1 X197.53 Y66.164 E97.46342
G1 X165.823 Y34.458 E98.87202
G1 X165.823 Y34.992 E98.8888
G1 X197.53 Y66.698 E100.2974
G1 X197.53 Y67.232 E100.31419
G1 X165.823 Y35.526 E101.72278
G1 X165.823 Y36.06 E101.73957
G1 X197.53 Y67.767 E103.14817
G1 X197.53 Y68.301 E103.16495
G1 X165.823 Y36.595 E104.57355
G1 X165.823 Y37.129 E104.59033
G1 X197.53 Y68.835 E105.99893
G1 X197.53 Y69.369 E106.01572
G1 X165.823 Y37.663 E107.42432
G1 X165.823 Y38.198 E107.4411
G1 X197.53 Y69.904 E108.8497
G1 X197.53 Y70.438 E108.86648
G1 X165.823 Y38.732 E110.27508
G1 X165.823 Y39.266 E110.29187
G1 X197.53 Y70.972 E111.70046
G1 X197.53 Y71.507 E111.71725
G1 X165.823 Y39.8 E113.12585
G1 X165.823 Y40.335 E113.14263
G1 X197.53 Y72.041 E114.55123
G1 X197.53 Y72.575 E114.56801
G1 X165.823 Y40.869 E115.97661
G1 X165.823 Y41.403 E115.9934
G1 X197.53 Y73.109 E117.402
G1 X197.53 Y73.644 E117.41878
G1 X165.823 Y41.938 E118.82738
G1 X165.823 Y42.472 E118.84416
G1 X197.53 Y74.178 E120.25276
G1 X197.53 Y74.712 E120.26955
G1 X165.823 Y43.006 E121.67814
G1 X165.823 Y43.541 E121.69493
G1 X197.53 Y75.247 E123.10353
G1 X197.53 Y75.781 E123.12031
G1 X165.823 Y44.075 E124.52891
G1 X165.823 Y44.609 E124.54569
G1 X197.53 Y76.315 E125.95429
G1 X197.53 Y76.85 E125.97108
G1 X165.823 Y45.143 E127.37968
G1 X165.823 Y45.678 E127.39646
G1 X197.53 Y77.384 E128.80506
G1 X197.53 Y77.918 E128.82184
G1 X165.823 Y46.212 E130.23044
G1 X165.823 Y46.746 E130.24723
G1 X197.53 Y78.452 E131.65582
G1 X197.53 Y78.987 E131.67261
G1 X165.823 Y47.281 E133.08121
G1 X165.823 Y47.815 E133.09799
G1 X197.53 Y79.521 E134.50659
G1 X197.53 Y80.055 E134.52337
G1 X165.823 Y48.349 E135.93197
G1 X165.823 Y48.883 E135.94876
G1 X197.53 Y80.59 E137.35736
G1 X197.53 Y81.124 E137.37414
G1 X165.823 Y49.418 E138.78274
G1 X165.823 Y49.952 E138.79952
G1 X197.53 Y81.658 E140.20812
G1 X197.53 Y82.192 E140.22491
G1 X165.823 Y50.486 E141.6335
G1 X165.823 Y51.021 E141.65029
G1 X197.53 Y82.727 E143.05889
G1 X197.53 Y83.261 E143.07567
G1 X165.823 Y51.555 E144.48427
G1 X165.823 Y52.089 E144.50105
G1 X197.53 Y83.795 E145.90965
G1 X197.53 Y84.33 E145.92644
G1 X165.823 Y52.624 E147.33504
G1 X165.823 Y53.158 E147.35182
G1 X197.53 Y84.864 E148.76042
G1 X197.53 Y85.398 E148.7772
G1 X165.823 Y53.692 E150.1858
G1 X165.823 Y54.226 E150.20259
G1 X197.53 Y85.933 E151.61118
G1 X197.53 Y86.467 E151.62797
G1 X165.823 Y54.761 E153.03657
G1 X165.823 Y55.295 E153.05335
G1 X197.53 Y87.001 E154.46195
G1 X197.53 Y87.535 E154.47873
G1 X165.823 Y55.829 E155.88733
G1 X165.823 Y56.364 E155.90412
G1 X197.53 Y88.07 E157.31272
G1 X197.53 Y88.604 E157.3295
G1 X165.823 Y56.898 E158.7381
G1 X165.823 Y57.432 E158.75488
G1 X197.53 Y89.138 E160.16348
G1 X197.53 Y89.673 E160.18027
G1 X165.823 Y57.966 E161.58886
G1 X165.823 Y58.501 E161.60565
G1 X197.53 Y90.207 E163.01425
G1 X197.53 Y90.741 E163.03103
G1 X165.823 Y59.035 E164.43963
G1 X165.823 Y59.569 E164.45641
G1 X197.53 Y91.275 E165.86501
G1 X197.53 Y91.81 E165.8818
G1 X165.823 Y60.104 E167.2904
G1 X165.823 Y60.638 E167.30718
G1 X197.53 Y92.344 E168.71578
G1 X197.53 Y92.878 E168.73256
G1 X185.873 Y81.222 E169.25041
G1 X185.873 Y81.757 E169.26719
G1 X197.53 Y93.413 E169.78503
G1 X197.53 Y93.947 E169.80182
G1 X185.873 Y82.291 E170.31966
G1 X185.873 Y82.825 E170.33644
G1 X197.53 Y94.481 E170.85428
G1 X197.53 Y95.016 E170.87107
G1 X185.873 Y83.359 E171.38891
G1 X185.873 Y83.894 E171.4057
G1 X197.53 Y95.55 E171.92354
G1 X197.53 Y96.084 E171.94032
G1 X185.873 Y84.428 E172.45816
G1 X185.873 Y84.962 E172.47495
G1 X197.53 Y96.618 E172.99279
G1 X197.53 Y97.153 E173.00957
G1 X185.873 Y85.497 E173.52742
G1 X185.873 Y86.031 E173.5442
G1 X197.53 Y97.687 E174.06204
G1 X197.53 Y98.221 E174.07883
G1 X185.873 Y86.565 E174.59667
G1 X185.873 Y87.099 E174.61345
G1 X197.53 Y98.756 E175.1313
G1 X197.53 Y99.29 E175.14808
G1 X185.873 Y87.634 E175.66592
G1 X185.873 Y88.168 E175.68271
G1 X197.53 Y99.824 E176.20055
G1 X197.53 Y100.358 E176.21733
G1 X185.873 Y88.702 E176.73518
G1 X185.873 Y89.237 E176.75196
G1 X197.53 Y100.893 E177.2698
G1 X197.53 Y101.427 E177.28659
G1 X185.873 Y89.771 E177.80443
G1 X185.873 Y90.305 E177.82121
G1 X197.53 Y101.961 E178.33906
G1 X197.53 Y102.496 E178.35584
G1 X185.873 Y90.84 E178.87368
G1 X185.873 Y91.374 E178.89047
G1 X197.53 Y103.03 E179.40831
G1 X197.53 Y103.564 E179.42509
G1 X185.873 Y91.908 E179.94293
G1 X185.873 Y92.442 E179.95972
G1 X197.53 Y104.099 E180.47756
G1 X197.53 Y104.633 E180.49435
G1 X185.873 Y92.977 E181.01219
G1 X185.873 Y93.511 E181.02897
G1 X197.53 Y105.167 E181.54681
G1 X197.53 Y105.701 E181.5636
G1 X185.873 Y94.045 E182.08144
G1 X185.873 Y94.58 E182.09823
G1 X197.53 Y106.236 E182.61607
G1 X197.53 Y106.77 E182.63285
G1 X185.873 Y95.114 E183.15069
G1 X185.873 Y95.648 E183.16748
G1 X197.53 Y107.304 E183.68532
G1 X197.53 Y107.839 E183.7021
G1 X185.873 Y96.182 E184.21995
G1 X185.873 Y96.717 E184.23673
G1 X197.53 Y108.373 E184.75457
G1 X197.53 Y108.907 E184.77136
G1 X185.873 Y97.251 E185.2892
G1 X185.873 Y97.785 E185.30598
G1 X197.53 Y109.441 E185.82383
G1 X197.53 Y109.976 E185.84061
G1 X185.873 Y98.32 E186.35845
G1 X185.873 Y98.854 E186.37524
G1 X197.53 Y110.51 E186.89308
G1 X197.53 Y111.044 E186.90986
G1 X185.873 Y99.388 E187.42771
G1 X185.873 Y99.923 E187.44449
G1 X197.53 Y111.579 E187.96233
G1 X197.53 Y112.113 E187.97912
G1 X185.873 Y100.457 E188.49696
G1 X185.873 Y100.991 E188.51374
G1 X197.53 Y112.647 E189.03159
G1 X197.53 Y113.182 E189.04837
G1 X185.873 Y101.525 E189.56621
G1 X185.873 Y102.06 E189.583
G1 X197.53 Y113.716 E190.10084
G1 X197.53 Y114.25 E190.11762
G1 X185.873 Y102.594 E190.63547
G1 X185.873 Y103.128 E190.65225
G1 X197.53 Y114.784 E191.17009
G1 X197.53 Y115.319 E191.18688
G1 X185.873 Y103.663 E191.70472
G1 X185.873 Y104.197 E191.7215
G1 X197.53 Y115.853 E192.23934
G1 X197.53 Y116.387 E192.25613
G1 X185.873 Y104.731 E192.77397
G1 X185.873 Y105.265 E192.79076
G1 X197.53 Y116.922 E193.3086
G1 X197.53 Y117.456 E193.32538
G1 X185.873 Y105.8 E193.84322
G1 X185.873 Y106.334 E193.86001
G1 X197.53 Y117.99 E194.37785
G1 X197.53 Y118.524 E194.39464
G1 X185.873 Y106.868 E194.91248
G1 X185.873 Y107.403 E194.92926
G1 X197.53 Y119.059 E195.4471
G1 X197.53 Y119.593 E195.46389
G1 X185.873 Y107.937 E195.98173
G1 X185.873 Y108.471 E195.99852
G1 X197.53 Y120.127 E196.51636
G1 X197.53 Y120.662 E196.53314
G1 X185.873 Y109.006 E197.05098
G1 X185.873 Y109.54 E197.06777
G1 X197.53 Y121.196 E197.58561
G1 X197.53 Y121.73 E197.60239
G1 X185.873 Y110.074 E198.12024
G1 X185.873 Y110.608 E198.13702
G1 X197.53 Y122.265 E198.65486
G1 X197.53 Y122.799 E198.67165
G1 X185.873 Y111.143 E199.18949
G1 X185.873 Y111.677 E199.20627
G1 X197.53 Y123.333 E199.72412
G1 X197.53 Y123.867 E199.7409
G1 X185.873 Y112.211 E200.25874
G1 X185.873 Y112.746 E200.27553
G1 X197.53 Y124.402 E200.79337
G1 X197.53 Y124.936 E200.81015
G1 X185.873 Y113.28 E201.328
G1 X185.873 Y113.814 E201.34478
G1 X197.53 Y125.47 E201.86262
G1 X197.53 Y126.005 E201.87941
G1 X185.873 Y114.348 E202.39725
G1 X185.873 Y114.883 E202.41403
G1 X197.53 Y126.539 E202.93188
G1 X197.53 Y127.073 E202.94866
G1 X185.873 Y115.417 E203.4665
G1 X185.873 Y115.951 E203.48329
