; generated by PrusaSlicer 2.4.2 on 2023-03-28 at 06:13:47 UTC

; 

; external perimeters extrusion width = 0.45mm
; perimeters extrusion width = 0.45mm
; infill extrusion width = 0.45mm
; solid infill extrusion width = 0.45mm
; top infill extrusion width = 0.40mm
; first layer extrusion width = 0.42mm

; external perimeters extrusion width = 0.45mm
; perimeters extrusion width = 0.45mm
; infill extrusion width = 0.45mm
; solid infill extrusion width = 0.45mm
; top infill extrusion width = 0.40mm
; first layer extrusion width = 0.42mm

M107
M190 S60 ; set bed temperature and wait for it to be reached
M104 S215 ; set temperature
;TYPE:Custom
G28 ; home all axes
G1 Z5 F5000 ; lift nozzle
M109 S215 ; set temperature and wait for it to be reached
G21 ; set units to millimeters
G90 ; use absolute coordinates
M82 ; use absolute distances for extrusion
G92 E0
; Filament gcode
M107
;LAYER_CHANGE
;Z:0.2
;HEIGHT:0.2
G1 Z.2 F7200
G1 E-2 F2400
G92 E0
G1 X22.856 Y43.303 F7200
G1 E2 F2400
;TYPE:Skirt/Brim
;WIDTH:0.42
G1 F3600
G1 X25.019 Y42.477 E2.07261
G1 X26.311 Y42.352 E2.11331
G1 X229.311 Y42.352 E8.47823
G1 X231.593 Y42.749 E8.55084
G1 X233.606 Y43.893 E8.62346
G1 X235.115 Y45.651 E8.69607
G1 X235.941 Y47.814 E8.76868
G1 X236.065 Y49.106 E8.80937
G1 X236.065 Y88.106 E10.03219
G1 X235.668 Y90.388 E10.10481
G1 X234.524 Y92.401 E10.17742
G1 X232.767 Y93.909 E10.25003
G1 X230.603 Y94.735 E10.32264
G1 X229.311 Y94.86 E10.36334
G1 X26.311 Y94.86 E16.72826
G1 X24.03 Y94.463 E16.80087
G1 X22.016 Y93.319 E16.87349
G1 X20.508 Y91.561 E16.9461
G1 X19.682 Y89.398 E17.01871
G1 X19.557 Y88.106 E17.05941
G1 X19.557 Y49.106 E18.28222
G1 X19.954 Y46.824 E18.35484
G1 X21.098 Y44.811 E18.42745
G1 X22.81 Y43.342 E18.49818
G1 X23.065 Y43.654 F7200
G1 F3600
G1 X23.216 Y43.531 E18.50429
G1 X26.311 Y42.729 E18.60455
G1 X229.311 Y42.729 E24.96947
G1 X231.526 Y43.126 E25.04001
G1 X233.465 Y44.267 E25.11055
G1 X234.887 Y46.01 E25.1811
G1 X235.688 Y49.106 E25.28136
G1 X235.688 Y88.106 E26.50417
G1 X235.291 Y90.321 E26.57471
G1 X234.15 Y92.259 E26.64526
G1 X232.407 Y93.681 E26.7158
G1 X229.311 Y94.483 E26.81606
G1 X26.311 Y94.483 E33.18098
G1 X24.097 Y94.086 E33.25152
G1 X22.158 Y92.945 E33.32206
G1 X20.736 Y91.202 E33.3926
G1 X19.934 Y88.106 E33.49287
G1 X19.934 Y49.106 E34.71568
G1 X20.331 Y46.891 E34.78622
G1 X21.472 Y44.953 E34.85677
G1 X23.018 Y43.692 E34.91932
G1 E32.91932 F2400
G92 E0
G1 X27.401 Y56.196 F7200
G1 E2 F2400
;TYPE:External perimeter
G1 F1125
G1 X228.221 Y56.196 E8.29657
G1 X228.221 Y81.016 E9.07478
G1 X27.401 Y81.016 E15.37135
G1 X27.401 Y56.256 E16.14769
G1 X27.216 Y55.842 F7200
G1 X27.475 Y55.442
;TYPE:Perimeter
G1 F2250
G1 X27.475 Y52.47 E16.24086
G1 X228.148 Y52.47 E22.53283
G1 X228.148 Y55.442 E22.62601
G1 X27.535 Y55.442 E28.91609
G1 X27.098 Y55.819 F7200
G1 F2250
G1 X27.098 Y52.093 E29.03291
G1 X228.525 Y52.093 E35.34852
G1 X228.525 Y55.819 E35.46536
G1 X27.158 Y55.819 E41.77909
G1 E39.77909 F2400
G92 E0
G1 X228.097 Y84.742 F7200
G1 E2 F2400
G1 F2250
G1 X27.475 Y84.742 E8.29035
G1 X27.475 Y81.77 E8.38352
G1 X228.148 Y81.77 E14.67549
G1 X228.148 Y84.734 E14.76841
G1 X228.525 Y85.119 F7200
G1 F2250
G1 X27.098 Y85.119 E21.08402
G1 X27.098 Y81.393 E21.20084
G1 X228.525 Y81.393 E27.51645
G1 X228.525 Y85.059 E27.6314
G1 E25.6314 F2400
G92 E0
G1 X228.097 Y87.417 F7200
G1 E2 F2400
;TYPE:External perimeter
G1 F1125
G1 X228.188 Y86.727 E2.02184
G1 X228.216 Y86.314 E2.03481
G1 X228.223 Y85.496 E2.06045
G1 X26.721 Y85.496 E8.37839
G1 X26.721 Y51.716 E9.43754
G1 X228.223 Y51.716 E15.75547
G1 X228.216 Y50.898 E15.78111
G1 X228.188 Y50.485 E15.79409
G1 X228.097 Y49.795 E15.81592
G1 X26.825 Y49.795 E22.12667
G1 X26.703 Y49.779 E22.13052
G1 X26.703 Y49.433 E22.14134
G1 X26.825 Y49.417 E22.1452
G1 X227.801 Y49.417 E28.44665
G1 X228.295 Y49.467 E28.46224
G1 X228.903 Y49.498 E28.4813
G1 X228.903 Y87.713 E29.67951
G1 X228.295 Y87.745 E29.69858
G1 X227.801 Y87.795 E29.71416
G1 X26.825 Y87.795 E36.01562
G1 X26.703 Y87.779 E36.01947
G1 X26.703 Y87.433 E36.03029
G1 X26.825 Y87.417 E36.03415
G1 X228.037 Y87.417 E42.34301
G1 X228.495 Y87.452 F7200
G1 X228.493 Y87.546
;TYPE:Gap fill
;WIDTH:0.457645
G1 F1200
G1 X228.544 Y86.768 E42.36989
;WIDTH:0.383171
G1 X228.544 Y86.757 E42.37019
;WIDTH:0.38212
G1 X228.559 Y86.332 E42.38219
;WIDTH:0.353042
G1 X228.559 Y86.323 E42.38243
;WIDTH:0.352685
G1 X228.563 Y85.308 E42.40857
G1 E40.40857 F2400
G92 E0
G1 X228.562 Y56.007 F7200
G1 E2 F2400
;WIDTH:0.347244
G1 F1200
G1 X228.562 Y81.205 E2.6376
G1 X228.035 Y82.646 F7200
;TYPE:Solid infill
;WIDTH:0.420169
G1 F1500
G1 X227.442 Y82.053 E2.66391
G1 X226.909 Y82.053 E2.68064
G1 X227.866 Y83.01 E2.72309
G1 X227.866 Y83.543 E2.73982
G1 X226.375 Y82.053 E2.80593
G1 X225.842 Y82.053 E2.82267
G1 X227.866 Y84.077 E2.91245
G1 X227.866 Y84.459 E2.92445
G1 X227.715 Y84.459 E2.92918
G1 X225.308 Y82.053 E3.03594
G1 X224.775 Y82.053 E3.05267
G1 X227.181 Y84.459 E3.15942
G1 X226.648 Y84.459 E3.17616
G1 X224.241 Y82.053 E3.28291
G1 X223.708 Y82.053 E3.29965
G1 X226.114 Y84.459 E3.4064
G1 X225.581 Y84.459 E3.42314
G1 X223.174 Y82.053 E3.52989
G1 X222.641 Y82.053 E3.54663
G1 X225.047 Y84.459 E3.65338
G1 X224.514 Y84.459 E3.67011
G1 X222.107 Y82.053 E3.77687
G1 X221.574 Y82.053 E3.7936
G1 X223.98 Y84.459 E3.90036
G1 X223.447 Y84.459 E3.91709
G1 X221.04 Y82.053 E4.02385
G1 X220.507 Y82.053 E4.04058
G1 X222.913 Y84.459 E4.14733
G1 X222.38 Y84.459 E4.16407
G1 X219.973 Y82.053 E4.27082
G1 X219.44 Y82.053 E4.28756
G1 X221.846 Y84.459 E4.39431
G1 X221.313 Y84.459 E4.41105
G1 X218.906 Y82.053 E4.5178
G1 X218.373 Y82.053 E4.53454
G1 X220.779 Y84.459 E4.64129
G1 X220.246 Y84.459 E4.65802
G1 X217.839 Y82.053 E4.76478
G1 X217.306 Y82.053 E4.78151
G1 X219.712 Y84.459 E4.88826
G1 X219.179 Y84.459 E4.905
G1 X216.772 Y82.053 E5.01175
G1 X216.239 Y82.053 E5.02849
G1 X218.645 Y84.459 E5.13524
G1 X218.112 Y84.459 E5.15198
G1 X215.705 Y82.053 E5.25873
G1 X215.172 Y82.053 E5.27547
G1 X217.578 Y84.459 E5.38222
G1 X217.045 Y84.459 E5.39895
G1 X214.638 Y82.053 E5.50571
G1 X214.105 Y82.053 E5.52244
G1 X216.511 Y84.459 E5.62919
G1 X215.977 Y84.459 E5.64593
G1 X213.571 Y82.053 E5.75268
G1 X213.038 Y82.053 E5.76942
G1 X215.444 Y84.459 E5.87617
G1 X214.91 Y84.459 E5.89291
G1 X212.504 Y82.053 E5.99966
G1 X211.971 Y82.053 E6.01639
G1 X214.377 Y84.459 E6.12315
G1 X213.843 Y84.459 E6.13988
G1 X211.437 Y82.053 E6.24663
G1 X210.904 Y82.053 E6.26337
G1 X213.31 Y84.459 E6.37012
G1 X212.776 Y84.459 E6.38686
G1 X210.37 Y82.053 E6.49361
G1 X209.837 Y82.053 E6.51035
G1 X212.243 Y84.459 E6.6171
G1 X211.709 Y84.459 E6.63383
G1 X209.303 Y82.053 E6.74059
G1 X208.769 Y82.053 E6.75732
G1 X211.176 Y84.459 E6.86407
G1 X210.642 Y84.459 E6.88081
G1 X208.236 Y82.053 E6.98756
G1 X207.702 Y82.053 E7.0043
G1 X210.109 Y84.459 E7.11105
G1 X209.575 Y84.459 E7.12778
G1 X207.169 Y82.053 E7.23454
G1 X206.635 Y82.053 E7.25127
G1 X209.042 Y84.459 E7.35802
G1 X208.508 Y84.459 E7.37476
G1 X206.102 Y82.053 E7.48151
G1 X205.568 Y82.053 E7.49825
G1 X207.975 Y84.459 E7.605
G1 X207.441 Y84.459 E7.62173
G1 X205.035 Y82.053 E7.72849
G1 X204.501 Y82.053 E7.74522
G1 X206.908 Y84.459 E7.85197
G1 X206.374 Y84.459 E7.86871
G1 X203.968 Y82.053 E7.97546
G1 X203.434 Y82.053 E7.9922
G1 X205.841 Y84.459 E8.09895
G1 X205.307 Y84.459 E8.11568
G1 X202.901 Y82.053 E8.22244
G1 X202.367 Y82.053 E8.23917
G1 X204.774 Y84.459 E8.34592
G1 X204.24 Y84.459 E8.36266
G1 X201.834 Y82.053 E8.46941
G1 X201.3 Y82.053 E8.48615
G1 X203.707 Y84.459 E8.5929
G1 X203.173 Y84.459 E8.60963
G1 X200.767 Y82.053 E8.71639
G1 X200.233 Y82.053 E8.73312
G1 X202.64 Y84.459 E8.83987
G1 X202.106 Y84.459 E8.85661
G1 X199.7 Y82.053 E8.96336
G1 X199.166 Y82.053 E8.98009
G1 X201.573 Y84.459 E9.08685
G1 X201.039 Y84.459 E9.10358
G1 X198.633 Y82.053 E9.21033
G1 X198.099 Y82.053 E9.22707
G1 X200.506 Y84.459 E9.33382
G1 X199.972 Y84.459 E9.35056
G1 X197.566 Y82.053 E9.45731
G1 X197.032 Y82.053 E9.47404
G1 X199.439 Y84.459 E9.58079
G1 X198.905 Y84.459 E9.59753
G1 X196.499 Y82.053 E9.70428
G1 X195.965 Y82.053 E9.72102
G1 X198.372 Y84.459 E9.82777
G1 X197.838 Y84.459 E9.8445
G1 X195.432 Y82.053 E9.95125
G1 X194.898 Y82.053 E9.96799
G1 X197.305 Y84.459 E10.07474
G1 X196.771 Y84.459 E10.09148
G1 X194.365 Y82.053 E10.19823
G1 X193.831 Y82.053 E10.21496
G1 X196.238 Y84.459 E10.32171
G1 X195.704 Y84.459 E10.33845
G1 X193.298 Y82.053 E10.4452
G1 X192.764 Y82.053 E10.46194
G1 X195.171 Y84.459 E10.56869
G1 X194.637 Y84.459 E10.58542
G1 X192.231 Y82.053 E10.69217
G1 X191.697 Y82.053 E10.70891
G1 X194.104 Y84.459 E10.81566
G1 X193.57 Y84.459 E10.8324
G1 X191.164 Y82.053 E10.93915
G1 X190.63 Y82.053 E10.95588
G1 X193.037 Y84.459 E11.06263
G1 X192.503 Y84.459 E11.07937
G1 X190.097 Y82.053 E11.18612
G1 X189.563 Y82.053 E11.20286
G1 X191.969 Y84.459 E11.30961
G1 X191.436 Y84.459 E11.32634
G1 X189.03 Y82.053 E11.43309
G1 X188.496 Y82.053 E11.44983
G1 X190.902 Y84.459 E11.55658
G1 X190.369 Y84.459 E11.57331
G1 X187.963 Y82.053 E11.68007
G1 X187.429 Y82.053 E11.6968
G1 X189.835 Y84.459 E11.80355
G1 X189.302 Y84.459 E11.82029
G1 X186.896 Y82.053 E11.92704
G1 X186.362 Y82.053 E11.94377
G1 X188.768 Y84.459 E12.05052
G1 X188.235 Y84.459 E12.06726
G1 X185.829 Y82.053 E12.17401
G1 X185.295 Y82.053 E12.19075
G1 X187.701 Y84.459 E12.2975
G1 X187.168 Y84.459 E12.31423
G1 X184.761 Y82.053 E12.42098
G1 X184.228 Y82.053 E12.43772
G1 X186.634 Y84.459 E12.54447
G1 X186.101 Y84.459 E12.5612
G1 X183.694 Y82.053 E12.66795
G1 X183.161 Y82.053 E12.68469
G1 X185.567 Y84.459 E12.79144
G1 X185.034 Y84.459 E12.80818
G1 X182.627 Y82.053 E12.91493
G1 X182.094 Y82.053 E12.93166
G1 X184.5 Y84.459 E13.03841
G1 X183.967 Y84.459 E13.05515
G1 X181.56 Y82.053 E13.1619
G1 X181.027 Y82.053 E13.17863
G1 X183.433 Y84.459 E13.28538
G1 X182.9 Y84.459 E13.30212
G1 X180.493 Y82.053 E13.40887
G1 X179.96 Y82.053 E13.4256
G1 X182.366 Y84.459 E13.53235
G1 X181.833 Y84.459 E13.54909
G1 X179.426 Y82.053 E13.65584
G1 X178.893 Y82.053 E13.67258
G1 X181.299 Y84.459 E13.77933
G1 X180.766 Y84.459 E13.79606
G1 X178.359 Y82.053 E13.90281
G1 X177.826 Y82.053 E13.91955
G1 X180.232 Y84.459 E14.0263
G1 X179.699 Y84.459 E14.04303
G1 X177.292 Y82.053 E14.14978
G1 X176.759 Y82.053 E14.16652
G1 X179.165 Y84.459 E14.27327
G1 X178.632 Y84.459 E14.29
G1 X176.225 Y82.053 E14.39675
G1 X175.692 Y82.053 E14.41349
G1 X178.098 Y84.459 E14.52024
G1 X177.565 Y84.459 E14.53697
G1 X175.158 Y82.053 E14.64372
G1 X174.625 Y82.053 E14.66046
G1 X177.031 Y84.459 E14.76721
G1 X176.498 Y84.459 E14.78394
G1 X174.091 Y82.053 E14.89069
G1 X173.558 Y82.053 E14.90743
G1 X175.964 Y84.459 E15.01418
G1 X175.431 Y84.459 E15.03091
G1 X173.024 Y82.053 E15.13766
G1 X172.491 Y82.053 E15.1544
G1 X174.897 Y84.459 E15.26115
G1 X174.364 Y84.459 E15.27788
G1 X171.957 Y82.053 E15.38463
G1 X171.424 Y82.053 E15.40137
G1 X173.83 Y84.459 E15.50812
G1 X173.297 Y84.459 E15.52485
G1 X170.89 Y82.053 E15.6316
G1 X170.357 Y82.053 E15.64834
G1 X172.763 Y84.459 E15.75509
G1 X172.23 Y84.459 E15.77182
G1 X169.823 Y82.053 E15.87857
G1 X169.29 Y82.053 E15.89531
G1 X171.696 Y84.459 E16.00206
G1 X171.163 Y84.459 E16.01879
G1 X168.756 Y82.053 E16.12554
G1 X168.223 Y82.053 E16.14228
G1 X170.629 Y84.459 E16.24903
G1 X170.096 Y84.459 E16.26576
G1 X167.689 Y82.053 E16.37251
G1 X167.156 Y82.053 E16.38925
G1 X169.562 Y84.459 E16.496
G1 X169.028 Y84.459 E16.51273
G1 X166.622 Y82.053 E16.61948
G1 X166.089 Y82.053 E16.63622
G1 X168.495 Y84.459 E16.74297
G1 X167.961 Y84.459 E16.7597
G1 X165.555 Y82.053 E16.86645
G1 X165.022 Y82.053 E16.88319
G1 X167.428 Y84.459 E16.98994
G1 X166.894 Y84.459 E17.00667
G1 X164.488 Y82.053 E17.11342
G1 X163.955 Y82.053 E17.13016
G1 X166.361 Y84.459 E17.2369
G1 X165.827 Y84.459 E17.25364
G1 X163.421 Y82.053 E17.36039
G1 X162.888 Y82.053 E17.37712
G1 X165.294 Y84.459 E17.48387
G1 X164.76 Y84.459 E17.50061
G1 X162.354 Y82.053 E17.60736
G1 X161.821 Y82.053 E17.62409
G1 X164.227 Y84.459 E17.73084
G1 X163.693 Y84.459 E17.74758
G1 X161.287 Y82.053 E17.85433
G1 X160.754 Y82.053 E17.87106
G1 X163.16 Y84.459 E17.97781
G1 X162.626 Y84.459 E17.99455
G1 X160.22 Y82.053 E18.10129
G1 X159.687 Y82.053 E18.11803
G1 X162.093 Y84.459 E18.22478
G1 X161.559 Y84.459 E18.24151
G1 X159.153 Y82.053 E18.34826
G1 X158.619 Y82.053 E18.365
G1 X161.026 Y84.459 E18.47175
G1 X160.492 Y84.459 E18.48848
G1 X158.086 Y82.053 E18.59523
G1 X157.552 Y82.053 E18.61197
G1 X159.959 Y84.459 E18.71872
G1 X159.425 Y84.459 E18.73545
G1 X157.019 Y82.053 E18.8422
G1 X156.485 Y82.053 E18.85893
G1 X158.892 Y84.459 E18.96568
G1 X158.358 Y84.459 E18.98242
G1 X155.952 Y82.053 E19.08917
G1 X155.418 Y82.053 E19.1059
G1 X157.825 Y84.459 E19.21265
G1 X157.291 Y84.459 E19.22939
G1 X154.885 Y82.053 E19.33613
G1 X154.351 Y82.053 E19.35287
G1 X156.758 Y84.459 E19.45962
G1 X156.224 Y84.459 E19.47635
G1 X153.818 Y82.053 E19.5831
G1 X153.284 Y82.053 E19.59984
G1 X155.691 Y84.459 E19.70659
G1 X155.157 Y84.459 E19.72332
G1 X152.751 Y82.053 E19.83007
G1 X152.217 Y82.053 E19.8468
G1 X154.624 Y84.459 E19.95355
G1 X154.09 Y84.459 E19.97029
G1 X151.684 Y82.053 E20.07704
G1 X151.15 Y82.053 E20.09377
G1 X153.557 Y84.459 E20.20052
G1 X153.023 Y84.459 E20.21726
G1 X150.617 Y82.053 E20.324
G1 X150.083 Y82.053 E20.34074
G1 X152.49 Y84.459 E20.44749
G1 X151.956 Y84.459 E20.46422
G1 X149.55 Y82.053 E20.57097
G1 X149.016 Y82.053 E20.58771
G1 X151.423 Y84.459 E20.69445
G1 X150.889 Y84.459 E20.71119
G1 X148.483 Y82.053 E20.81794
G1 X147.949 Y82.053 E20.83467
G1 X150.356 Y84.459 E20.94142
G1 X149.822 Y84.459 E20.95816
G1 X147.416 Y82.053 E21.0649
G1 X146.882 Y82.053 E21.08164
G1 X149.289 Y84.459 E21.18839
G1 X148.755 Y84.459 E21.20512
G1 X146.349 Y82.053 E21.31187
G1 X145.815 Y82.053 E21.32861
G1 X148.222 Y84.459 E21.43535
G1 X147.688 Y84.459 E21.45209
G1 X145.282 Y82.053 E21.55884
G1 X144.748 Y82.053 E21.57557
G1 X147.155 Y84.459 E21.68232
G1 X146.621 Y84.459 E21.69905
G1 X144.215 Y82.053 E21.8058
G1 X143.681 Y82.053 E21.82254
G1 X146.087 Y84.459 E21.92928
G1 X145.554 Y84.459 E21.94602
G1 X143.148 Y82.053 E22.05277
G1 X142.614 Y82.053 E22.0695
G1 X145.02 Y84.459 E22.17625
G1 X144.487 Y84.459 E22.19299
G1 X142.081 Y82.053 E22.29973
G1 X141.547 Y82.053 E22.31647
G1 X143.953 Y84.459 E22.42322
G1 X143.42 Y84.459 E22.43995
G1 X141.014 Y82.053 E22.5467
G1 X140.48 Y82.053 E22.56343
G1 X142.886 Y84.459 E22.67018
G1 X142.353 Y84.459 E22.68692
G1 X139.947 Y82.053 E22.79366
G1 X139.413 Y82.053 E22.8104
G1 X141.819 Y84.459 E22.91715
G1 X141.286 Y84.459 E22.93388
G1 X138.88 Y82.053 E23.04063
G1 X138.346 Y82.053 E23.05737
G1 X140.752 Y84.459 E23.16411
G1 X140.219 Y84.459 E23.18085
G1 X137.813 Y82.053 E23.28759
G1 X137.279 Y82.053 E23.30433
G1 X139.685 Y84.459 E23.41108
G1 X139.152 Y84.459 E23.42781
G1 X136.746 Y82.053 E23.53456
G1 X136.212 Y82.053 E23.5513
G1 X138.618 Y84.459 E23.65804
G1 X138.085 Y84.459 E23.67478
G1 X135.679 Y82.053 E23.78152
G1 X135.145 Y82.053 E23.79826
G1 X137.551 Y84.459 E23.90501
G1 X137.018 Y84.459 E23.92174
G1 X134.611 Y82.053 E24.02849
G1 X134.078 Y82.053 E24.04522
G1 X136.484 Y84.459 E24.15197
G1 X135.951 Y84.459 E24.16871
G1 X133.544 Y82.053 E24.27545
G1 X133.011 Y82.053 E24.29219
G1 X135.417 Y84.459 E24.39894
G1 X134.884 Y84.459 E24.41567
G1 X132.477 Y82.053 E24.52242
G1 X131.944 Y82.053 E24.53915
G1 X134.35 Y84.459 E24.6459
G1 X133.817 Y84.459 E24.66264
G1 X131.41 Y82.053 E24.76938
G1 X130.877 Y82.053 E24.78612
G1 X133.283 Y84.459 E24.89286
G1 X132.75 Y84.459 E24.9096
G1 X130.343 Y82.053 E25.01635
G1 X129.81 Y82.053 E25.03308
G1 X132.216 Y84.459 E25.13983
G1 X131.683 Y84.459 E25.15656
G1 X129.276 Y82.053 E25.26331
G1 X128.743 Y82.053 E25.28005
G1 X131.149 Y84.459 E25.38679
G1 X130.616 Y84.459 E25.40353
G1 X128.209 Y82.053 E25.51027
G1 X127.676 Y82.053 E25.52701
G1 X130.082 Y84.459 E25.63376
G1 X129.549 Y84.459 E25.65049
G1 X127.142 Y82.053 E25.75724
G1 X126.609 Y82.053 E25.77397
G1 X129.015 Y84.459 E25.88072
G1 X128.482 Y84.459 E25.89745
G1 X126.075 Y82.053 E26.0042
G1 X125.542 Y82.053 E26.02094
G1 X127.948 Y84.459 E26.12768
G1 X127.415 Y84.459 E26.14442
G1 X125.008 Y82.053 E26.25116
G1 X124.475 Y82.053 E26.2679
G1 X126.881 Y84.459 E26.37465
