; generated by PrusaSlicer 2.4.2 on 2023-04-10 at 07:23:40 UTC

; 

; external perimeters extrusion width = 0.45mm
; perimeters extrusion width = 0.45mm
; infill extrusion width = 0.45mm
; solid infill extrusion width = 0.45mm
; top infill extrusion width = 0.40mm
; first layer extrusion width = 0.42mm

M107
M190 S60 ; set bed temperature and wait for it to be reached
M104 S215 ; set temperature
;TYPE:Custom
G28 ; home all axes
G1 Z5 F5000 ; lift nozzle
M109 S215 ; set temperature and wait for it to be reached
G21 ; set units to millimeters
G90 ; use absolute coordinates
M82 ; use absolute distances for extrusion
G92 E0
; Filament gcode
M107
;LAYER_CHANGE
;Z:0.2
;HEIGHT:0.2
G1 Z.2 F7200
G1 E-2 F2400
G92 E0
G1 X157.622 Y13 F7200
G1 E2 F2400
;TYPE:Skirt/Brim
;WIDTH:0.42
G1 F3600
G1 X158.019 Y10.718 E2.07261
G1 X159.164 Y8.705 E2.14523
G1 X160.921 Y7.197 E2.21784
G1 X163.085 Y6.371 E2.29045
G1 X164.377 Y6.246 E2.33115
G1 X198.977 Y6.246 E3.416
G1 X201.258 Y6.643 E3.48862
G1 X203.271 Y7.787 E3.56123
G1 X204.78 Y9.545 E3.63384
G1 X205.606 Y11.708 E3.70646
G1 X205.731 Y13 E3.74715
G1 X205.731 Y187 E9.2028
G1 X205.334 Y189.282 E9.27541
G1 X204.189 Y191.295 E9.34802
G1 X202.432 Y192.803 E9.42064
G1 X200.268 Y193.629 E9.49325
G1 X198.977 Y193.754 E9.53394
G1 X164.377 Y193.754 E10.6188
G1 X162.095 Y193.357 E10.69142
G1 X160.082 Y192.213 E10.76403
G1 X158.573 Y190.455 E10.83664
G1 X157.747 Y188.292 E10.90925
G1 X157.622 Y187 E10.94995
G1 X157.622 Y13.06 E16.40371
G1 X157.999 Y13.06 F7200
G1 F3600
G1 X158.396 Y10.785 E16.47611
G1 X159.537 Y8.847 E16.54665
G1 X161.281 Y7.425 E16.61719
G1 X164.377 Y6.623 E16.71745
G1 X198.977 Y6.623 E17.80231
G1 X201.191 Y7.02 E17.87285
G1 X203.13 Y8.161 E17.94339
G1 X204.552 Y9.904 E18.01393
G1 X205.354 Y13 E18.11419
G1 X205.354 Y187 E23.56984
G1 X204.957 Y189.215 E23.64038
G1 X203.816 Y191.153 E23.71093
G1 X202.072 Y192.575 E23.78147
G1 X198.977 Y193.377 E23.88173
G1 X164.377 Y193.377 E24.96659
G1 X162.162 Y192.98 E25.03713
G1 X160.223 Y191.839 E25.10767
G1 X158.801 Y190.096 E25.17821
G1 X157.999 Y187 E25.27847
G1 X157.999 Y13.12 E30.73036
G1 E28.73036 F2400
G92 E0
G1 X177.762 Y41.836 F7200
G1 E2 F2400
;TYPE:Perimeter
G1 F2250
G1 X185.591 Y41.836 E2.24545
G1 X185.591 Y138.164 E5.26576
G1 X177.762 Y138.164 E5.51121
G1 X177.762 Y41.896 E8.52964
G1 X178.139 Y42.213 F7200
G1 F2250
G1 X185.214 Y42.213 E8.75144
G1 X185.214 Y137.787 E11.7481
G1 X178.139 Y137.787 E11.96991
G1 X178.139 Y42.273 E14.96469
G1 X178.517 Y42.59 F7200
;TYPE:External perimeter
G1 F1125
G1 X184.837 Y42.59 E15.16285
G1 X184.837 Y137.41 E18.13586
G1 X178.517 Y137.41 E18.33402
G1 X178.517 Y42.65 E21.30515
G1 X178.508 Y42.19 F7200
G1 E19.30515 F2400
G92 E0
G1 X165.541 Y14.164 F7200
G1 E2 F2400
;TYPE:Perimeter
G1 F2250
G1 X197.812 Y14.164 E3.01186
G1 X197.812 Y185.836 E8.3945
G1 X165.541 Y185.836 E9.40636
G1 X165.541 Y14.224 E14.78712
G1 X165.164 Y13.787 F7200
G1 F2250
G1 X198.189 Y13.787 E15.82262
G1 X198.189 Y186.213 E21.22892
G1 X165.164 Y186.213 E22.26442
G1 X165.164 Y13.847 E27.66883
G1 X164.787 Y13.41 F7200
;TYPE:External perimeter
G1 F1125
G1 X198.567 Y13.41 E28.72798
G1 X198.567 Y186.59 E34.15791
G1 X164.787 Y186.59 E35.21706
G1 X164.787 Y13.47 E40.64512
G1 X165.145 Y13.587 F7200
G1 E38.64512 F2400
G92 E0
G1 X197.699 Y15.041 F7200
G1 E2 F2400
;TYPE:Solid infill
;WIDTH:0.420723
G1 F1500
G1 X197.105 Y14.447 E2.02639
G1 X196.571 Y14.447 E2.04318
G1 X197.53 Y15.406 E2.08577
G1 X197.53 Y15.94 E2.10256
G1 X196.037 Y14.447 E2.16889
G1 X195.502 Y14.447 E2.18567
G1 X197.53 Y16.474 E2.27574
G1 X197.53 Y17.009 E2.29252
G1 X194.968 Y14.447 E2.40633
G1 X194.434 Y14.447 E2.42311
G1 X197.53 Y17.543 E2.56065
G1 X197.53 Y18.077 E2.57744
G1 X193.899 Y14.447 E2.73872
G1 X193.365 Y14.447 E2.7555
G1 X197.53 Y18.611 E2.94051
G1 X197.53 Y19.146 E2.9573
G1 X192.831 Y14.447 E3.16605
G1 X192.296 Y14.447 E3.18284
G1 X197.53 Y19.68 E3.41532
G1 X197.53 Y20.214 E3.43211
G1 X191.762 Y14.447 E3.68833
G1 X191.228 Y14.447 E3.70512
G1 X197.53 Y20.749 E3.98508
G1 X197.53 Y21.283 E4.00187
G1 X190.694 Y14.447 E4.30557
G1 X190.159 Y14.447 E4.32235
G1 X197.53 Y21.817 E4.64979
G1 X197.53 Y22.352 E4.66657
G1 X189.625 Y14.447 E5.01774
G1 X189.091 Y14.447 E5.03453
G1 X197.53 Y22.886 E5.40944
G1 X197.53 Y23.42 E5.42622
G1 X188.556 Y14.447 E5.82487
G1 X188.022 Y14.447 E5.84166
G1 X197.53 Y23.954 E6.26404
G1 X197.53 Y24.489 E6.28082
G1 X187.488 Y14.447 E6.72695
G1 X186.954 Y14.447 E6.74373
G1 X197.53 Y25.023 E7.21359
G1 X197.53 Y25.557 E7.23037
G1 X186.419 Y14.447 E7.72397
G1 X185.885 Y14.447 E7.74075
G1 X197.53 Y26.092 E8.25808
G1 X197.53 Y26.626 E8.27487
G1 X185.351 Y14.447 E8.81594
G1 X184.816 Y14.447 E8.83272
G1 X197.53 Y27.16 E9.39753
G1 X197.53 Y27.694 E9.41431
G1 X184.282 Y14.447 E10.00286
G1 X183.748 Y14.447 E10.01964
G1 X197.53 Y28.229 E10.63192
G1 X197.53 Y28.763 E10.6487
G1 X183.213 Y14.447 E11.28472
G1 X182.679 Y14.447 E11.30151
G1 X197.53 Y29.297 E11.96126
G1 X197.53 Y29.832 E11.97804
G1 X182.145 Y14.447 E12.66153
G1 X181.611 Y14.447 E12.67832
G1 X197.53 Y30.366 E13.38555
G1 X197.53 Y30.9 E13.40233
G1 X181.076 Y14.447 E14.1333
G1 X180.542 Y14.447 E14.15008
G1 X197.53 Y31.435 E14.90478
G1 X197.53 Y31.969 E14.92157
G1 X180.008 Y14.447 E15.70001
G1 X179.473 Y14.447 E15.71679
G1 X197.53 Y32.503 E16.51896
G1 X197.53 Y33.037 E16.53575
G1 X178.939 Y14.447 E17.36166
G1 X178.405 Y14.447 E17.37845
G1 X197.53 Y33.572 E18.2281
G1 X197.53 Y34.106 E18.24488
G1 X177.871 Y14.447 E19.11827
G1 X177.336 Y14.447 E19.13505
G1 X197.53 Y34.64 E20.03217
G1 X197.53 Y35.175 E20.04896
G1 X176.802 Y14.447 E20.96982
G1 X176.268 Y14.447 E20.9866
G1 X197.53 Y35.709 E21.9312
G1 X197.53 Y36.243 E21.94798
G1 X175.733 Y14.447 E22.91632
G1 X175.199 Y14.447 E22.9331
G1 X197.53 Y36.777 E23.92517
G1 X197.53 Y37.312 E23.94196
G1 X174.665 Y14.447 E24.95777
G1 X174.13 Y14.447 E24.97455
G1 X197.53 Y37.846 E26.0141
G1 X197.53 Y38.38 E26.03088
G1 X173.596 Y14.447 E27.09416
G1 X173.062 Y14.447 E27.11095
G1 X197.53 Y38.915 E28.19797
G1 X197.53 Y39.449 E28.21475
G1 X172.528 Y14.447 E29.32551
G1 X171.993 Y14.447 E29.34229
G1 X197.53 Y39.983 E30.47678
G1 X197.53 Y40.518 E30.49357
G1 X171.459 Y14.447 E31.6518
G1 X170.925 Y14.447 E31.66858
G1 X197.53 Y41.052 E32.85055
G1 X197.53 Y41.586 E32.86733
G1 X170.39 Y14.447 E34.07304
G1 X169.856 Y14.447 E34.08982
G1 X197.53 Y42.12 E35.31926
G1 X197.53 Y42.655 E35.33605
G1 X169.322 Y14.447 E36.58922
G1 X168.788 Y14.447 E36.60601
G1 X197.53 Y43.189 E37.88292
G1 X197.53 Y43.723 E37.89971
G1 X168.253 Y14.447 E39.20036
G1 X167.719 Y14.447 E39.21714
G1 X197.53 Y44.258 E40.54153
G1 X197.53 Y44.792 E40.55831
G1 X167.185 Y14.447 E41.90644
G1 X166.65 Y14.447 E41.92322
G1 X197.53 Y45.326 E43.29509
G1 X197.53 Y45.86 E43.31187
G1 X166.116 Y14.447 E44.70747
G1 X165.823 Y14.447 E44.71666
G1 X165.823 Y14.689 E44.72425
G1 X197.53 Y46.395 E46.13285
G1 X197.53 Y46.929 E46.14964
G1 X165.823 Y15.223 E47.55824
G1 X165.823 Y15.757 E47.57502
G1 X197.53 Y47.463 E48.98362
G1 X197.53 Y47.998 E49.0004
G1 X165.823 Y16.292 E50.409
G1 X165.823 Y16.826 E50.42579
G1 X197.53 Y48.532 E51.83438
G1 X197.53 Y49.066 E51.85117
G1 X165.823 Y17.36 E53.25977
G1 X165.823 Y17.894 E53.27655
G1 X197.53 Y49.601 E54.68515
G1 X197.53 Y50.135 E54.70193
G1 X165.823 Y18.429 E56.11053
G1 X165.823 Y18.963 E56.12732
G1 X197.53 Y50.669 E57.53592
G1 X197.53 Y51.203 E57.5527
G1 X165.823 Y19.497 E58.9613
G1 X165.823 Y20.032 E58.97808
G1 X197.53 Y51.738 E60.38668
G1 X197.53 Y52.272 E60.40347
G1 X165.823 Y20.566 E61.81206
G1 X165.823 Y21.1 E61.82885
G1 X197.53 Y52.806 E63.23745
G1 X197.53 Y53.341 E63.25423
G1 X165.823 Y21.634 E64.66283
G1 X165.823 Y22.169 E64.67961
G1 X185.208 Y41.553 E65.54079
G1 X184.673 Y41.553 E65.55758
G1 X165.823 Y22.703 E66.39502
G1 X165.823 Y23.237 E66.41181
G1 X184.139 Y41.553 E67.22551
G1 X183.605 Y41.553 E67.2423
G1 X165.823 Y23.772 E68.03227
G1 X165.823 Y24.306 E68.04905
G1 X183.071 Y41.553 E68.81528
G1 X182.536 Y41.553 E68.83207
G1 X165.823 Y24.84 E69.57456
G1 X165.823 Y25.375 E69.59135
G1 X182.002 Y41.553 E70.31011
G1 X181.468 Y41.553 E70.32689
G1 X165.823 Y25.909 E71.02191
G1 X165.823 Y26.443 E71.0387
G1 X180.933 Y41.553 E71.70998
G1 X180.399 Y41.553 E71.72677
G1 X165.823 Y26.977 E72.37431
G1 X165.823 Y27.512 E72.3911
G1 X179.865 Y41.553 E73.01491
G1 X179.33 Y41.553 E73.03169
G1 X165.823 Y28.046 E73.63177
G1 X165.823 Y28.58 E73.64855
G1 X178.796 Y41.553 E74.22489
G1 X178.262 Y41.553 E74.24167
G1 X165.823 Y29.115 E74.79427
G1 X165.823 Y29.649 E74.81106
G1 X177.728 Y41.553 E75.33992
G1 X177.48 Y41.553 E75.34771
G1 X177.48 Y41.839 E75.35671
G1 X165.823 Y30.183 E75.87455
G1 X165.823 Y30.717 E75.89133
G1 X177.48 Y42.374 E76.40917
G1 X177.48 Y42.908 E76.42596
G1 X165.823 Y31.252 E76.9438
G1 X165.823 Y31.786 E76.96059
G1 X177.48 Y43.442 E77.47843
G1 X177.48 Y43.976 E77.49521
G1 X165.823 Y32.32 E78.01305
G1 X165.823 Y32.855 E78.02984
G1 X177.48 Y44.511 E78.54768
G1 X177.48 Y45.045 E78.56447
G1 X165.823 Y33.389 E79.08231
G1 X165.823 Y33.923 E79.09909
G1 X177.48 Y45.579 E79.61693
G1 X177.48 Y46.114 E79.63372
G1 X165.823 Y34.458 E80.15156
G1 X165.823 Y34.992 E80.16834
G1 X177.48 Y46.648 E80.68619
G1 X177.48 Y47.182 E80.70297
G1 X165.823 Y35.526 E81.22081
G1 X165.823 Y36.06 E81.2376
G1 X177.48 Y47.716 E81.75544
G1 X177.48 Y48.251 E81.77222
G1 X165.823 Y36.595 E82.29007
G1 X165.823 Y37.129 E82.30685
G1 X177.48 Y48.785 E82.82469
G1 X177.48 Y49.319 E82.84148
G1 X165.823 Y37.663 E83.35932
G1 X165.823 Y38.198 E83.3761
G1 X177.48 Y49.854 E83.89395
G1 X177.48 Y50.388 E83.91073
G1 X165.823 Y38.732 E84.42857
G1 X165.823 Y39.266 E84.44536
G1 X177.48 Y50.922 E84.9632
G1 X177.48 Y51.457 E84.97998
G1 X165.823 Y39.8 E85.49783
G1 X165.823 Y40.335 E85.51461
G1 X177.48 Y51.991 E86.03245
G1 X177.48 Y52.525 E86.04924
G1 X165.823 Y40.869 E86.56708
G1 X165.823 Y41.403 E86.58386
G1 X177.48 Y53.059 E87.1017
G1 X177.48 Y53.594 E87.11849
G1 X165.823 Y41.938 E87.63633
G1 X165.823 Y42.472 E87.65312
G1 X177.48 Y54.128 E88.17096
G1 X177.48 Y54.662 E88.18774
G1 X165.823 Y43.006 E88.70558
G1 X165.823 Y43.541 E88.72237
G1 X177.48 Y55.197 E89.24021
G1 X177.48 Y55.731 E89.257
G1 X165.823 Y44.075 E89.77484
G1 X165.823 Y44.609 E89.79162
G1 X177.48 Y56.265 E90.30946
G1 X177.48 Y56.799 E90.32625
G1 X165.823 Y45.143 E90.84409
G1 X165.823 Y45.678 E90.86087
G1 X177.48 Y57.334 E91.37872
G1 X177.48 Y57.868 E91.3955
G1 X165.823 Y46.212 E91.91334
G1 X165.823 Y46.746 E91.93013
G1 X177.48 Y58.402 E92.44797
G1 X177.48 Y58.937 E92.46475
G1 X165.823 Y47.281 E92.9826
G1 X165.823 Y47.815 E92.99938
G1 X177.48 Y59.471 E93.51722
G1 X177.48 Y60.005 E93.53401
G1 X165.823 Y48.349 E94.05185
G1 X165.823 Y48.883 E94.06863
G1 X177.48 Y60.54 E94.58648
G1 X177.48 Y61.074 E94.60326
G1 X165.823 Y49.418 E95.1211
G1 X165.823 Y49.952 E95.13789
G1 X177.48 Y61.608 E95.65573
G1 X177.48 Y62.142 E95.67251
G1 X165.823 Y50.486 E96.19036
G1 X165.823 Y51.021 E96.20714
G1 X177.48 Y62.677 E96.72498
G1 X177.48 Y63.211 E96.74177
G1 X165.823 Y51.555 E97.25961
G1 X165.823 Y52.089 E97.27639
G1 X177.48 Y63.745 E97.79423
G1 X177.48 Y64.28 E97.81102
G1 X165.823 Y52.624 E98.32886
G1 X165.823 Y53.158 E98.34565
G1 X177.48 Y64.814 E98.86349
G1 X177.48 Y65.348 E98.88027
G1 X165.823 Y53.692 E99.39811
G1 X165.823 Y54.226 E99.4149
G1 X177.48 Y65.882 E99.93274
G1 X177.48 Y66.417 E99.94953
G1 X165.823 Y54.761 E100.46737
G1 X165.823 Y55.295 E100.48415
G1 X177.48 Y66.951 E101.00199
G1 X177.48 Y67.485 E101.01878
G1 X165.823 Y55.829 E101.53662
G1 X165.823 Y56.364 E101.55341
G1 X177.48 Y68.02 E102.07125
G1 X177.48 Y68.554 E102.08803
G1 X165.823 Y56.898 E102.60587
G1 X165.823 Y57.432 E102.62266
G1 X177.48 Y69.088 E103.1405
G1 X177.48 Y69.623 E103.15728
G1 X165.823 Y57.966 E103.67513
G1 X165.823 Y58.501 E103.69191
G1 X177.48 Y70.157 E104.20975
G1 X177.48 Y70.691 E104.22654
G1 X165.823 Y59.035 E104.74438
G1 X165.823 Y59.569 E104.76116
G1 X177.48 Y71.225 E105.27901
G1 X177.48 Y71.76 E105.29579
G1 X165.823 Y60.104 E105.81363
G1 X165.823 Y60.638 E105.83042
G1 X177.48 Y72.294 E106.34826
G1 X177.48 Y72.828 E106.36504
G1 X165.823 Y61.172 E106.88289
G1 X165.823 Y61.707 E106.89967
G1 X177.48 Y73.363 E107.41751
G1 X177.48 Y73.897 E107.4343
G1 X165.823 Y62.241 E107.95214
G1 X165.823 Y62.775 E107.96892
G1 X177.48 Y74.431 E108.48677
G1 X177.48 Y74.965 E108.50355
G1 X165.823 Y63.309 E109.02139
G1 X165.823 Y63.844 E109.03818
G1 X177.48 Y75.5 E109.55602
G1 X177.48 Y76.034 E109.5728
G1 X165.823 Y64.378 E110.09064
G1 X165.823 Y64.912 E110.10743
G1 X177.48 Y76.568 E110.62527
G1 X177.48 Y77.103 E110.64206
G1 X165.823 Y65.447 E111.1599
G1 X165.823 Y65.981 E111.17668
G1 X177.48 Y77.637 E111.69452
G1 X177.48 Y78.171 E111.71131
G1 X165.823 Y66.515 E112.22915
G1 X165.823 Y67.049 E112.24594
G1 X177.48 Y78.706 E112.76378
G1 X177.48 Y79.24 E112.78056
G1 X165.823 Y67.584 E113.2984
G1 X165.823 Y68.118 E113.31519
G1 X177.48 Y79.774 E113.83303
G1 X177.48 Y80.308 E113.84981
G1 X165.823 Y68.652 E114.36766
G1 X165.823 Y69.187 E114.38444
G1 X177.48 Y80.843 E114.90228
G1 X177.48 Y81.377 E114.91907
G1 X165.823 Y69.721 E115.43691
G1 X165.823 Y70.255 E115.45369
G1 X177.48 Y81.911 E115.97154
G1 X177.48 Y82.446 E115.98832
G1 X165.823 Y70.79 E116.50616
G1 X165.823 Y71.324 E116.52295
G1 X177.48 Y82.98 E117.04079
G1 X177.48 Y83.514 E117.05757
G1 X165.823 Y71.858 E117.57542
G1 X165.823 Y72.392 E117.5922
G1 X177.48 Y84.048 E118.11004
G1 X177.48 Y84.583 E118.12683
G1 X165.823 Y72.927 E118.64467
G1 X165.823 Y73.461 E118.66145
G1 X177.48 Y85.117 E119.1793
G1 X177.48 Y85.651 E119.19608
G1 X165.823 Y73.995 E119.71392
G1 X165.823 Y74.53 E119.73071
G1 X177.48 Y86.186 E120.24855
G1 X177.48 Y86.72 E120.26533
G1 X165.823 Y75.064 E120.78318
G1 X165.823 Y75.598 E120.79996
G1 X177.48 Y87.254 E121.3178
G1 X177.48 Y87.789 E121.33459
G1 X165.823 Y76.132 E121.85243
G1 X165.823 Y76.667 E121.86921
G1 X177.48 Y88.323 E122.38705
G1 X177.48 Y88.857 E122.40384
G1 X165.823 Y77.201 E122.92168
G1 X165.823 Y77.735 E122.93847
G1 X177.48 Y89.391 E123.45631
G1 X177.48 Y89.926 E123.47309
G1 X165.823 Y78.27 E123.99093
G1 X165.823 Y78.804 E124.00772
G1 X177.48 Y90.46 E124.52556
G1 X177.48 Y90.994 E124.54235
G1 X165.823 Y79.338 E125.06019
G1 X165.823 Y79.873 E125.07697
G1 X177.48 Y91.529 E125.59481
G1 X177.48 Y92.063 E125.6116
G1 X165.823 Y80.407 E126.12944
G1 X165.823 Y80.941 E126.14622
G1 X177.48 Y92.597 E126.66407
G1 X177.48 Y93.131 E126.68085
G1 X165.823 Y81.475 E127.19869
G1 X165.823 Y82.01 E127.21548
G1 X177.48 Y93.666 E127.73332
G1 X177.48 Y94.2 E127.7501
G1 X165.823 Y82.544 E128.26795
G1 X165.823 Y83.078 E128.28473
G1 X177.48 Y94.734 E128.80257
G1 X177.48 Y95.269 E128.81936
G1 X165.823 Y83.613 E129.3372
G1 X165.823 Y84.147 E129.35398
G1 X177.48 Y95.803 E129.87183
G1 X177.48 Y96.337 E129.88861
G1 X165.823 Y84.681 E130.40645
G1 X165.823 Y85.215 E130.42324
G1 X177.48 Y96.872 E130.94108
G1 X177.48 Y97.406 E130.95786
G1 X165.823 Y85.75 E131.47571
G1 X165.823 Y86.284 E131.49249
G1 X177.48 Y97.94 E132.01033
G1 X177.48 Y98.474 E132.02712
G1 X165.823 Y86.818 E132.54496
G1 X165.823 Y87.353 E132.56174
G1 X177.48 Y99.009 E133.07959
G1 X177.48 Y99.543 E133.09637
G1 X165.823 Y87.887 E133.61421
G1 X165.823 Y88.421 E133.631
G1 X177.48 Y100.077 E134.14884
G1 X177.48 Y100.612 E134.16562
G1 X165.823 Y88.956 E134.68347
G1 X165.823 Y89.49 E134.70025
G1 X177.48 Y101.146 E135.21809
G1 X177.48 Y101.68 E135.23488
G1 X165.823 Y90.024 E135.75272
G1 X165.823 Y90.558 E135.7695
G1 X177.48 Y102.214 E136.28734
G1 X177.48 Y102.749 E136.30413
G1 X165.823 Y91.093 E136.82197
G1 X165.823 Y91.627 E136.83876
G1 X177.48 Y103.283 E137.3566
G1 X177.48 Y103.817 E137.37338
G1 X165.823 Y92.161 E137.89122
G1 X165.823 Y92.696 E137.90801
G1 X177.48 Y104.352 E138.42585
G1 X177.48 Y104.886 E138.44264
G1 X165.823 Y93.23 E138.96048
G1 X165.823 Y93.764 E138.97726
G1 X177.48 Y105.42 E139.4951
G1 X177.48 Y105.955 E139.51189
G1 X165.823 Y94.298 E140.02973
G1 X165.823 Y94.833 E140.04651
G1 X177.48 Y106.489 E140.56436
G1 X177.48 Y107.023 E140.58114
G1 X165.823 Y95.367 E141.09898
G1 X165.823 Y95.901 E141.11577
G1 X177.48 Y107.557 E141.63361
G1 X177.48 Y108.092 E141.65039
G1 X165.823 Y96.436 E142.16824
