; generated by PrusaSlicer 2.4.2 on 2023-04-08 at 09:21:32 UTC

; 

; external perimeters extrusion width = 0.45mm
; perimeters extrusion width = 0.45mm
; infill extrusion width = 0.45mm
; solid infill extrusion width = 0.45mm
; top infill extrusion width = 0.40mm
; first layer extrusion width = 0.42mm

; external perimeters extrusion width = 0.45mm
; perimeters extrusion width = 0.45mm
; infill extrusion width = 0.45mm
; solid infill extrusion width = 0.45mm
; top infill extrusion width = 0.40mm
; first layer extrusion width = 0.42mm

M107
M190 S60 ; set bed temperature and wait for it to be reached
M104 S215 ; set temperature
;TYPE:Custom
G28 ; home all axes
G1 Z5 F5000 ; lift nozzle
M109 S215 ; set temperature and wait for it to be reached
G21 ; set units to millimeters
G90 ; use absolute coordinates
M82 ; use absolute distances for extrusion
G92 E0
; Filament gcode
M107
;LAYER_CHANGE
;Z:0.2
;HEIGHT:0.2
G1 Z.2 F7200
G1 E-2 F2400
G92 E0
G1 X22.856 Y43.303 F7200
G1 E2 F2400
;TYPE:Skirt/Brim
;WIDTH:0.42
G1 F3600
G1 X25.019 Y42.477 E2.07261
G1 X26.311 Y42.352 E2.11331
G1 X229.311 Y42.352 E8.47823
G1 X231.593 Y42.749 E8.55084
G1 X233.606 Y43.893 E8.62346
G1 X235.115 Y45.651 E8.69607
G1 X235.941 Y47.814 E8.76868
G1 X236.065 Y49.106 E8.80937
G1 X236.065 Y88.106 E10.03219
G1 X235.668 Y90.388 E10.10481
G1 X234.524 Y92.401 E10.17742
G1 X232.767 Y93.909 E10.25003
G1 X230.603 Y94.735 E10.32264
G1 X229.311 Y94.86 E10.36334
G1 X26.311 Y94.86 E16.72826
G1 X24.03 Y94.463 E16.80087
G1 X22.016 Y93.319 E16.87349
G1 X20.508 Y91.561 E16.9461
G1 X19.682 Y89.398 E17.01871
G1 X19.557 Y88.106 E17.05941
G1 X19.557 Y49.106 E18.28222
G1 X19.954 Y46.824 E18.35484
G1 X21.098 Y44.811 E18.42745
G1 X22.81 Y43.342 E18.49818
G1 X23.065 Y43.654 F7200
G1 F3600
G1 X23.216 Y43.531 E18.50429
G1 X26.311 Y42.729 E18.60455
G1 X229.311 Y42.729 E24.96947
G1 X231.526 Y43.126 E25.04001
G1 X233.465 Y44.267 E25.11055
G1 X234.887 Y46.01 E25.1811
G1 X235.688 Y49.106 E25.28136
G1 X235.688 Y88.106 E26.50417
G1 X235.291 Y90.321 E26.57471
G1 X234.15 Y92.259 E26.64526
G1 X232.407 Y93.681 E26.7158
G1 X229.311 Y94.483 E26.81606
G1 X26.311 Y94.483 E33.18098
G1 X24.097 Y94.086 E33.25152
G1 X22.158 Y92.945 E33.32206
G1 X20.736 Y91.202 E33.3926
G1 X19.934 Y88.106 E33.49287
G1 X19.934 Y49.106 E34.71568
G1 X20.331 Y46.891 E34.78622
G1 X21.472 Y44.953 E34.85677
G1 X23.018 Y43.692 E34.91932
G1 E32.91932 F2400
G92 E0
G1 X27.25 Y56.052 F7200
G1 E2 F2400
;TYPE:External perimeter
G1 F1125
G1 X28.807 Y55.999 E2.04887
G1 X29.811 Y55.996 E2.08034
G1 X225.811 Y55.996 E8.22579
G1 X226.815 Y55.999 E8.25726
G1 X228.373 Y56.052 E8.30612
G1 X228.373 Y81.16 E9.0934
G1 X226.815 Y81.213 E9.14226
G1 X225.811 Y81.216 E9.17373
G1 X29.811 Y81.216 E15.31918
G1 X28.807 Y81.213 E15.35065
G1 X27.25 Y81.16 E15.39952
G1 X27.25 Y56.112 E16.18491
G1 X27.232 Y55.652 F7200
G1 E14.18491 F2400
G92 E0
G1 X227.949 Y84.583 F7200
G1 E2 F2400
;TYPE:Perimeter
G1 F2250
G1 X226.829 Y84.544 E2.03514
G1 X225.813 Y84.542 E2.06699
G1 X27.675 Y84.542 E8.27947
G1 X27.674 Y81.929 E8.36138
G1 X28.793 Y81.967 E8.3965
G1 X29.81 Y81.97 E8.42839
G1 X225.812 Y81.97 E14.57388
G1 X226.829 Y81.967 E14.60576
G1 X227.95 Y81.929 E14.64095
G1 X227.949 Y84.523 E14.72226
G1 X228.147 Y84.967 F7200
G1 F2250
G1 X226.822 Y84.922 E14.76384
G1 X225.812 Y84.919 E14.7955
G1 X27.298 Y84.919 E21.01977
G1 X27.284 Y81.539 E21.12575
G1 X28.8 Y81.59 E21.17333
G1 X29.811 Y81.593 E21.205
G1 X225.812 Y81.593 E27.35047
G1 X226.822 Y81.59 E27.38215
G1 X228.329 Y81.539 E27.42942
G1 X228.337 Y84.973 E27.53709
G1 X228.207 Y84.969 E27.54116
G1 E25.54116 F2400
G92 E0
G1 X227.951 Y55.283 F7200
G1 E2 F2400
G1 F2250
G1 X226.829 Y55.244 E2.0352
G1 X225.812 Y55.242 E2.06708
G1 X29.81 Y55.242 E8.21257
G1 X28.793 Y55.244 E8.24445
G1 X27.674 Y55.283 E8.27958
G1 X27.675 Y52.67 E8.36149
G1 X225.813 Y52.67 E14.57397
G1 X226.829 Y52.667 E14.60582
G1 X227.954 Y52.629 E14.64113
G1 X227.951 Y55.223 E14.72244
G1 X228.329 Y55.673 F7200
G1 F2250
G1 X226.822 Y55.622 E14.76971
G1 X225.812 Y55.619 E14.80139
G1 X29.811 Y55.619 E20.94686
G1 X28.8 Y55.622 E20.97854
G1 X27.284 Y55.673 E21.02611
G1 X27.298 Y52.293 E21.13209
G1 X225.812 Y52.293 E27.35637
G1 X226.822 Y52.29 E27.38803
G1 X228.334 Y52.239 E27.43547
G1 X228.329 Y55.613 E27.54125
G1 E25.54125 F2400
G92 E0
G1 X228.064 Y87.417 F7200
G1 E2 F2400
;TYPE:External perimeter
G1 F1125
G1 X228.284 Y86.757 E2.02181
G1 X228.359 Y86.326 E2.03554
G1 X228.376 Y85.352 E2.0661
G1 X226.815 Y85.299 E2.11508
G1 X26.921 Y85.296 E8.38261
G1 X26.92 Y81.948 E8.48757
G1 X26.873 Y80.466 E8.53409
G1 X26.873 Y56.746 E9.27779
G1 X26.92 Y55.264 E9.3243
G1 X26.921 Y51.916 E9.42927
G1 X226.815 Y51.913 E15.6968
G1 X228.376 Y51.86 E15.74578
G1 X228.359 Y50.886 E15.77633
G1 X228.284 Y50.455 E15.79006
G1 X228.064 Y49.795 E15.81188
G1 X26.865 Y49.795 E22.12032
G1 X26.891 Y49.606 E22.12629
G1 X26.865 Y49.417 E22.13225
G1 X227.799 Y49.417 E28.43238
G1 X228.275 Y49.474 E28.44743
G1 X228.735 Y49.579 E28.46223
G1 X228.75 Y50.109 E28.47885
G1 X228.75 Y51.102 E28.50999
G1 X228.712 Y52.101 E28.54134
G1 X228.701 Y53.605 E28.58851
G1 X228.706 Y55.611 E28.65138
G1 X228.75 Y56.611 E28.68276
G1 X228.75 Y80.601 E29.43497
G1 X228.706 Y81.601 E29.46635
G1 X228.701 Y83.106 E29.51353
G1 X228.703 Y84.609 E29.56067
G1 X228.75 Y86.109 E29.60772
G1 X228.75 Y87.103 E29.63889
G1 X228.735 Y87.633 E29.65551
G1 X228.275 Y87.738 E29.67031
G1 X227.799 Y87.795 E29.68535
G1 X26.865 Y87.795 E35.98548
G1 X26.891 Y87.606 E35.99145
G1 X26.865 Y87.417 E35.99741
G1 X228.004 Y87.417 E42.30398
G1 X228.455 Y87.502 F7200
G1 X228.394 Y87.518
;TYPE:Gap fill
;WIDTH:0.312144
G1 F1200
G1 X228.431 Y87.309 E42.30873
;WIDTH:0.271228
G1 X228.467 Y87.099 E42.31277
;WIDTH:0.230314
G1 X228.49 Y86.959 E42.31498
;WIDTH:0.184831
G1 X228.513 Y86.819 E42.31666
;WIDTH:0.13935
G1 X228.514 Y86.812 E42.31672
;WIDTH:0.137576
G1 X228.538 Y86.53 E42.31894
G1 E40.31894 F2400
G92 E0
G1 X227.835 Y82.807 F7200
G1 E2 F2400
;TYPE:Solid infill
;WIDTH:0.420741
G1 F1500
G1 X227.263 Y82.236 E2.0254
G1 X226.744 Y82.25 E2.04172
G1 X227.664 Y83.171 E2.08262
G1 X227.665 Y83.706 E2.09943
G1 X226.211 Y82.252 E2.16404
G1 X225.677 Y82.253 E2.18079
G1 X227.666 Y84.241 E2.26912
G1 X227.666 Y84.29 E2.27066
G1 X227.163 Y84.273 E2.28646
G1 X225.143 Y82.253 E2.3762
G1 X224.609 Y82.253 E2.39299
G1 X226.617 Y84.261 E2.48221
G1 X226.081 Y84.26 E2.49904
G1 X224.075 Y82.253 E2.5882
G1 X223.54 Y82.253 E2.60499
G1 X225.546 Y84.259 E2.69411
G1 X225.012 Y84.259 E2.7109
G1 X223.006 Y82.253 E2.80003
G1 X222.472 Y82.253 E2.81682
G1 X224.478 Y84.259 E2.90595
G1 X223.943 Y84.259 E2.92273
G1 X221.937 Y82.253 E3.01186
G1 X221.403 Y82.253 E3.02865
G1 X223.409 Y84.259 E3.11778
G1 X222.875 Y84.259 E3.13456
G1 X220.869 Y82.253 E3.22369
G1 X220.334 Y82.253 E3.24048
G1 X222.34 Y84.259 E3.32961
G1 X221.806 Y84.259 E3.34639
G1 X219.8 Y82.253 E3.43552
G1 X219.266 Y82.253 E3.45231
G1 X221.272 Y84.259 E3.54144
G1 X220.737 Y84.259 E3.55822
G1 X218.731 Y82.253 E3.64735
G1 X218.197 Y82.253 E3.66414
G1 X220.203 Y84.259 E3.75327
G1 X219.669 Y84.259 E3.77005
G1 X217.663 Y82.253 E3.85918
G1 X217.128 Y82.253 E3.87597
G1 X219.134 Y84.259 E3.9651
G1 X218.6 Y84.259 E3.98188
G1 X216.594 Y82.253 E4.07101
G1 X216.06 Y82.253 E4.0878
G1 X218.066 Y84.259 E4.17693
G1 X217.532 Y84.259 E4.19372
G1 X215.525 Y82.253 E4.28284
G1 X214.991 Y82.253 E4.29963
G1 X216.997 Y84.259 E4.38876
G1 X216.463 Y84.259 E4.40555
G1 X214.457 Y82.253 E4.49468
G1 X213.922 Y82.253 E4.51146
G1 X215.929 Y84.259 E4.60059
G1 X215.394 Y84.259 E4.61738
G1 X213.388 Y82.253 E4.70651
G1 X212.854 Y82.253 E4.72329
G1 X214.86 Y84.259 E4.81242
G1 X214.326 Y84.259 E4.82921
G1 X212.319 Y82.253 E4.91834
G1 X211.785 Y82.253 E4.93512
G1 X213.791 Y84.259 E5.02425
G1 X213.257 Y84.259 E5.04104
G1 X211.251 Y82.253 E5.13017
G1 X210.717 Y82.253 E5.14695
G1 X212.723 Y84.259 E5.23608
G1 X212.188 Y84.259 E5.25287
G1 X210.182 Y82.253 E5.342
G1 X209.648 Y82.253 E5.35878
G1 X211.654 Y84.259 E5.44791
G1 X211.12 Y84.259 E5.4647
G1 X209.114 Y82.253 E5.55383
G1 X208.579 Y82.253 E5.57061
G1 X210.585 Y84.259 E5.65974
G1 X210.051 Y84.259 E5.67653
G1 X208.045 Y82.253 E5.76566
G1 X207.511 Y82.253 E5.78245
G1 X209.517 Y84.259 E5.87157
G1 X208.982 Y84.259 E5.88836
G1 X206.976 Y82.253 E5.97749
G1 X206.442 Y82.253 E5.99428
G1 X208.448 Y84.259 E6.08341
G1 X207.914 Y84.259 E6.10019
G1 X205.908 Y82.253 E6.18932
G1 X205.373 Y82.253 E6.20611
G1 X207.379 Y84.259 E6.29524
G1 X206.845 Y84.259 E6.31202
G1 X204.839 Y82.253 E6.40115
G1 X204.305 Y82.253 E6.41794
G1 X206.311 Y84.259 E6.50707
G1 X205.776 Y84.259 E6.52385
G1 X203.77 Y82.253 E6.61298
G1 X203.236 Y82.253 E6.62977
G1 X205.242 Y84.259 E6.7189
G1 X204.708 Y84.259 E6.73568
G1 X202.702 Y82.253 E6.82481
G1 X202.167 Y82.253 E6.8416
G1 X204.174 Y84.259 E6.93073
G1 X203.639 Y84.259 E6.94751
G1 X201.633 Y82.253 E7.03664
G1 X201.099 Y82.253 E7.05343
G1 X203.105 Y84.259 E7.14256
G1 X202.571 Y84.259 E7.15934
G1 X200.564 Y82.253 E7.24847
G1 X200.03 Y82.253 E7.26526
G1 X202.036 Y84.259 E7.35439
G1 X201.502 Y84.259 E7.37118
G1 X199.496 Y82.253 E7.4603
G1 X198.961 Y82.253 E7.47709
G1 X200.968 Y84.259 E7.56622
G1 X200.433 Y84.259 E7.58301
G1 X198.427 Y82.253 E7.67214
G1 X197.893 Y82.253 E7.68892
G1 X199.899 Y84.259 E7.77805
G1 X199.365 Y84.259 E7.79484
G1 X197.359 Y82.253 E7.88397
G1 X196.824 Y82.253 E7.90075
G1 X198.83 Y84.259 E7.98988
G1 X198.296 Y84.259 E8.00667
G1 X196.29 Y82.253 E8.0958
G1 X195.756 Y82.253 E8.11258
G1 X197.762 Y84.259 E8.20171
G1 X197.227 Y84.259 E8.2185
G1 X195.221 Y82.253 E8.30763
G1 X194.687 Y82.253 E8.32441
G1 X196.693 Y84.259 E8.41354
G1 X196.159 Y84.259 E8.43033
G1 X194.153 Y82.253 E8.51946
G1 X193.618 Y82.253 E8.53624
G1 X195.624 Y84.259 E8.62537
G1 X195.09 Y84.259 E8.64216
G1 X193.084 Y82.253 E8.73129
G1 X192.55 Y82.253 E8.74807
G1 X194.556 Y84.259 E8.8372
G1 X194.021 Y84.259 E8.85399
G1 X192.015 Y82.253 E8.94312
G1 X191.481 Y82.253 E8.95991
G1 X193.487 Y84.259 E9.04903
G1 X192.953 Y84.259 E9.06582
G1 X190.947 Y82.253 E9.15495
G1 X190.412 Y82.253 E9.17174
G1 X192.418 Y84.259 E9.26087
G1 X191.884 Y84.259 E9.27765
G1 X189.878 Y82.253 E9.36678
G1 X189.344 Y82.253 E9.38357
G1 X191.35 Y84.259 E9.4727
G1 X190.816 Y84.259 E9.48948
G1 X188.809 Y82.253 E9.57861
G1 X188.275 Y82.253 E9.5954
G1 X190.281 Y84.259 E9.68453
G1 X189.747 Y84.259 E9.70131
G1 X187.741 Y82.253 E9.79044
G1 X187.206 Y82.253 E9.80723
G1 X189.213 Y84.259 E9.89636
G1 X188.678 Y84.259 E9.91314
G1 X186.672 Y82.253 E10.00227
G1 X186.138 Y82.253 E10.01906
G1 X188.144 Y84.259 E10.10819
G1 X187.61 Y84.259 E10.12497
G1 X185.603 Y82.253 E10.2141
G1 X185.069 Y82.253 E10.23089
G1 X187.075 Y84.259 E10.32002
G1 X186.541 Y84.259 E10.3368
G1 X184.535 Y82.253 E10.42593
G1 X184.001 Y82.253 E10.44272
G1 X186.007 Y84.259 E10.53185
G1 X185.472 Y84.259 E10.54864
G1 X183.466 Y82.253 E10.63776
G1 X182.932 Y82.253 E10.65455
G1 X184.938 Y84.259 E10.74368
G1 X184.404 Y84.259 E10.76047
G1 X182.398 Y82.253 E10.8496
G1 X181.863 Y82.253 E10.86638
G1 X183.869 Y84.259 E10.95551
G1 X183.335 Y84.259 E10.9723
G1 X181.329 Y82.253 E11.06143
G1 X180.795 Y82.253 E11.07821
G1 X182.801 Y84.259 E11.16734
G1 X182.266 Y84.259 E11.18413
G1 X180.26 Y82.253 E11.27326
G1 X179.726 Y82.253 E11.29004
G1 X181.732 Y84.259 E11.37917
G1 X181.198 Y84.259 E11.39596
G1 X179.192 Y82.253 E11.48509
G1 X178.657 Y82.253 E11.50187
G1 X180.663 Y84.259 E11.591
G1 X180.129 Y84.259 E11.60779
G1 X178.123 Y82.253 E11.69692
G1 X177.589 Y82.253 E11.7137
G1 X179.595 Y84.259 E11.80283
G1 X179.06 Y84.259 E11.81962
G1 X177.054 Y82.253 E11.90875
G1 X176.52 Y82.253 E11.92553
G1 X178.526 Y84.259 E12.01466
G1 X177.992 Y84.259 E12.03145
G1 X175.986 Y82.253 E12.12058
G1 X175.451 Y82.253 E12.13737
G1 X177.458 Y84.259 E12.22649
G1 X176.923 Y84.259 E12.24328
G1 X174.917 Y82.253 E12.33241
G1 X174.383 Y82.253 E12.3492
G1 X176.389 Y84.259 E12.43833
G1 X175.855 Y84.259 E12.45511
G1 X173.848 Y82.253 E12.54424
G1 X173.314 Y82.253 E12.56103
G1 X175.32 Y84.259 E12.65016
G1 X174.786 Y84.259 E12.66694
G1 X172.78 Y82.253 E12.75607
G1 X172.246 Y82.253 E12.77286
G1 X174.252 Y84.259 E12.86199
G1 X173.717 Y84.259 E12.87877
G1 X171.711 Y82.253 E12.9679
G1 X171.177 Y82.253 E12.98469
G1 X173.183 Y84.259 E13.07382
G1 X172.649 Y84.259 E13.0906
G1 X170.643 Y82.253 E13.17973
G1 X170.108 Y82.253 E13.19652
G1 X172.114 Y84.259 E13.28565
G1 X171.58 Y84.259 E13.30243
G1 X169.574 Y82.253 E13.39156
G1 X169.04 Y82.253 E13.40835
G1 X171.046 Y84.259 E13.49748
G1 X170.511 Y84.259 E13.51427
G1 X168.505 Y82.253 E13.60339
G1 X167.971 Y82.253 E13.62018
G1 X169.977 Y84.259 E13.70931
G1 X169.443 Y84.259 E13.7261
G1 X167.437 Y82.253 E13.81523
G1 X166.902 Y82.253 E13.83201
G1 X168.908 Y84.259 E13.92114
G1 X168.374 Y84.259 E13.93793
G1 X166.368 Y82.253 E14.02706
G1 X165.834 Y82.253 E14.04384
G1 X167.84 Y84.259 E14.13297
G1 X167.305 Y84.259 E14.14976
G1 X165.299 Y82.253 E14.23889
G1 X164.765 Y82.253 E14.25567
G1 X166.771 Y84.259 E14.3448
G1 X166.237 Y84.259 E14.36159
G1 X164.231 Y82.253 E14.45072
G1 X163.696 Y82.253 E14.4675
G1 X165.703 Y84.259 E14.55663
G1 X165.168 Y84.259 E14.57342
G1 X163.162 Y82.253 E14.66255
G1 X162.628 Y82.253 E14.67933
G1 X164.634 Y84.259 E14.76846
G1 X164.1 Y84.259 E14.78525
G1 X162.093 Y82.253 E14.87438
G1 X161.559 Y82.253 E14.89117
G1 X163.565 Y84.259 E14.98029
G1 X163.031 Y84.259 E14.99708
G1 X161.025 Y82.253 E15.08621
G1 X160.49 Y82.253 E15.103
G1 X162.497 Y84.259 E15.19213
G1 X161.962 Y84.259 E15.20891
G1 X159.956 Y82.253 E15.29804
G1 X159.422 Y82.253 E15.31483
G1 X161.428 Y84.259 E15.40396
G1 X160.894 Y84.259 E15.42074
G1 X158.888 Y82.253 E15.50987
G1 X158.353 Y82.253 E15.52666
G1 X160.359 Y84.259 E15.61579
G1 X159.825 Y84.259 E15.63257
G1 X157.819 Y82.253 E15.7217
G1 X157.285 Y82.253 E15.73849
G1 X159.291 Y84.259 E15.82762
G1 X158.756 Y84.259 E15.8444
G1 X156.75 Y82.253 E15.93353
G1 X156.216 Y82.253 E15.95032
G1 X158.222 Y84.259 E16.03945
G1 X157.688 Y84.259 E16.05623
G1 X155.682 Y82.253 E16.14536
G1 X155.147 Y82.253 E16.16215
G1 X157.153 Y84.259 E16.25128
G1 X156.619 Y84.259 E16.26806
G1 X154.613 Y82.253 E16.35719
G1 X154.079 Y82.253 E16.37398
G1 X156.085 Y84.259 E16.46311
G1 X155.55 Y84.259 E16.4799
G1 X153.544 Y82.253 E16.56902
G1 X153.01 Y82.253 E16.58581
G1 X155.016 Y84.259 E16.67494
G1 X154.482 Y84.259 E16.69173
G1 X152.476 Y82.253 E16.78086
G1 X151.941 Y82.253 E16.79764
G1 X153.947 Y84.259 E16.88677
G1 X153.413 Y84.259 E16.90356
G1 X151.407 Y82.253 E16.99269
G1 X150.873 Y82.253 E17.00947
G1 X152.879 Y84.259 E17.0986
G1 X152.345 Y84.259 E17.11539
G1 X150.338 Y82.253 E17.20452
G1 X149.804 Y82.253 E17.2213
G1 X151.81 Y84.259 E17.31043
G1 X151.276 Y84.259 E17.32722
G1 X149.27 Y82.253 E17.41635
G1 X148.735 Y82.253 E17.43313
G1 X150.742 Y84.259 E17.52226
G1 X150.207 Y84.259 E17.53905
G1 X148.201 Y82.253 E17.62818
G1 X147.667 Y82.253 E17.64496
G1 X149.673 Y84.259 E17.73409
G1 X149.139 Y84.259 E17.75088
G1 X147.132 Y82.253 E17.84001
G1 X146.598 Y82.253 E17.8568
G1 X148.604 Y84.259 E17.94592
G1 X148.07 Y84.259 E17.96271
G1 X146.064 Y82.253 E18.05184
G1 X145.53 Y82.253 E18.06863
G1 X147.536 Y84.259 E18.15776
G1 X147.001 Y84.259 E18.17454
G1 X144.995 Y82.253 E18.26367
G1 X144.461 Y82.253 E18.28046
G1 X146.467 Y84.259 E18.36959
G1 X145.933 Y84.259 E18.38637
G1 X143.927 Y82.253 E18.4755
G1 X143.392 Y82.253 E18.49229
G1 X145.398 Y84.259 E18.58142
G1 X144.864 Y84.259 E18.5982
G1 X142.858 Y82.253 E18.68733
G1 X142.324 Y82.253 E18.70412
G1 X144.33 Y84.259 E18.79325
G1 X143.795 Y84.259 E18.81003
G1 X141.789 Y82.253 E18.89916
G1 X141.255 Y82.253 E18.91595
G1 X143.261 Y84.259 E19.00508
G1 X142.727 Y84.259 E19.02186
G1 X140.721 Y82.253 E19.11099
G1 X140.186 Y82.253 E19.12778
G1 X142.192 Y84.259 E19.21691
G1 X141.658 Y84.259 E19.2337
G1 X139.652 Y82.253 E19.32282
G1 X139.118 Y82.253 E19.33961
G1 X141.124 Y84.259 E19.42874
G1 X140.589 Y84.259 E19.44553
G1 X138.583 Y82.253 E19.53466
G1 X138.049 Y82.253 E19.55144
G1 X140.055 Y84.259 E19.64057
G1 X139.521 Y84.259 E19.65736
G1 X137.515 Y82.253 E19.74649
G1 X136.98 Y82.253 E19.76327
G1 X138.987 Y84.259 E19.8524
G1 X138.452 Y84.259 E19.86919
G1 X136.446 Y82.253 E19.95832
